<?xml version="1.0" encoding="UTF-8"?>
<map version="1.11" tiledversion="1.11.2" orientation="isometric" renderorder="right-down" width="28" height="28" tilewidth="192" tileheight="96" infinite="0" backgroundcolor="#000000" nextlayerid="24" nextobjectid="11">
 <editorsettings>
  <export target="../../../../game/mods/procgen_test/maps/iron_labyrinth/f2/end.txt" format="flare"/>
 </editorsettings>
 <properties>
  <property name="hero_pos" value="13,16"/>
  <property name="procgen_type" value="end"/>
  <property name="tileset" value="tilesetdefs/tileset_ruins.txt"/>
 </properties>
 <tileset firstgid="1" name="collision" tilewidth="192" tileheight="96" tilecount="15" columns="15">
  <image source="../tilesheets/tiled_collision.png" width="2880" height="96"/>
 </tileset>
 <tileset firstgid="16" name="set_rules" tilewidth="192" tileheight="96" tilecount="8" columns="2">
  <image source="../tilesheets/tiled_set_rules.png" width="384" height="384"/>
 </tileset>
 <tileset firstgid="24" name="ruins" tilewidth="192" tileheight="384" tilecount="352" columns="16">
  <image source="../tilesheets/ruins.png" width="3072" height="8448"/>
 </tileset>
 <tileset firstgid="376" name="ruins_door_left" tilewidth="192" tileheight="384" tilecount="2" columns="2">
  <tileoffset x="-48" y="-24"/>
  <image source="../tilesheets/ruins_door_left.png" width="384" height="384"/>
 </tileset>
 <tileset firstgid="378" name="ruins_door_right" tilewidth="192" tileheight="384" tilecount="2" columns="2">
  <tileoffset x="48" y="-24"/>
  <image source="../tilesheets/ruins_door_right.png" width="384" height="384"/>
 </tileset>
 <tileset firstgid="380" name="ruins_2x2" tilewidth="384" tileheight="192" tilecount="4" columns="4">
  <tileoffset x="0" y="48"/>
  <image source="../tilesheets/ruins_2x2.png" width="1536" height="192"/>
 </tileset>
 <tileset firstgid="384" name="boss_chest" tilewidth="192" tileheight="192" tilecount="4" columns="4">
  <image source="../tilesheets/boss_chest.png" width="768" height="192"/>
 </tileset>
 <layer id="9" name="background" width="28" height="28">
  <data encoding="csv">
0,0,0,0,0,0,0,0,0,0,0,0,0,0,0,0,0,0,0,0,0,0,0,0,0,0,0,0,
0,0,0,0,0,0,0,0,0,0,0,0,0,0,0,0,0,0,0,0,0,0,0,0,0,0,0,0,
0,0,0,0,0,0,0,0,0,0,0,0,0,0,0,0,0,0,0,0,0,0,0,0,0,0,0,0,
0,0,0,0,0,0,0,0,0,0,0,0,0,0,0,0,0,0,0,0,0,0,0,0,0,0,0,0,
0,0,0,0,24,25,26,27,24,25,26,27,24,25,26,27,24,25,26,27,24,25,26,27,0,0,0,0,
0,0,0,0,28,42,42,39,40,40,38,39,42,38,39,42,41,40,39,43,38,43,40,31,0,0,0,0,
0,0,0,0,24,42,26,27,24,25,26,27,24,25,26,27,24,25,26,27,24,25,41,27,0,0,0,0,
0,0,0,0,28,38,30,31,28,29,30,31,28,29,30,31,28,29,30,31,28,29,43,31,0,0,0,0,
0,0,0,0,24,38,26,27,24,25,26,27,24,83,26,27,24,25,26,27,24,25,38,27,0,0,0,0,
0,0,0,0,28,38,30,31,28,29,30,31,28,29,30,31,28,29,30,31,28,29,40,31,0,0,0,0,
0,0,0,0,24,42,26,65,35,86,26,27,85,25,26,27,24,25,26,27,24,25,43,27,0,0,0,0,
0,0,0,0,28,42,30,31,28,29,30,31,28,29,65,31,28,29,30,31,28,29,43,31,0,0,0,0,
0,0,0,0,24,41,26,27,24,25,26,27,24,25,32,27,24,25,26,27,24,25,42,27,0,0,0,0,
0,0,0,0,28,40,30,31,28,29,30,31,28,84,30,31,42,29,30,31,28,29,39,31,0,0,0,0,
0,0,0,0,24,38,26,27,24,25,26,27,24,25,43,27,24,25,47,27,24,25,43,27,0,0,0,0,
0,0,0,0,28,38,30,64,28,29,30,31,28,29,30,0,0,348,30,31,28,29,39,31,0,0,0,0,
0,0,0,0,24,40,26,27,24,25,26,27,24,40,26,0,0,347,26,42,24,25,43,27,0,0,0,0,
0,0,0,0,28,38,30,31,28,29,30,31,28,29,30,344,345,346,30,31,28,29,39,31,0,0,0,0,
0,0,0,0,24,38,26,27,24,25,26,27,24,25,44,27,24,25,43,27,24,25,41,27,0,0,0,0,
0,0,0,0,28,41,30,31,28,29,30,31,28,29,30,31,43,29,30,31,28,29,43,31,0,0,0,0,
0,0,0,0,24,43,26,27,24,25,26,27,24,25,26,27,24,25,26,27,24,25,41,27,0,0,0,0,
0,0,0,0,28,39,30,31,28,29,30,31,28,29,30,31,28,29,30,31,28,29,41,31,0,0,0,0,
0,0,0,0,24,39,42,39,38,38,39,43,39,41,41,41,39,39,40,41,43,41,39,27,0,0,0,0,
0,0,0,0,28,29,30,31,28,29,30,31,28,29,30,31,28,29,30,31,28,29,30,31,0,0,0,0,
0,0,0,0,0,0,0,0,0,0,0,0,0,0,0,0,0,0,0,0,0,0,0,0,0,0,0,0,
0,0,0,0,0,0,0,0,0,0,0,0,0,0,0,0,0,0,0,0,0,0,0,0,0,0,0,0,
0,0,0,0,0,0,0,0,0,0,0,0,0,0,0,0,0,0,0,0,0,0,0,0,0,0,0,0,
0,0,0,0,0,0,0,0,0,0,0,0,0,0,0,0,0,0,0,0,0,0,0,0,0,0,0,0
</data>
 </layer>
 <layer id="12" name="background_fringe" width="28" height="28">
  <data encoding="csv">
0,0,0,0,0,0,0,0,0,0,0,0,0,0,0,0,0,0,0,0,0,0,0,0,0,0,0,0,
0,0,0,0,0,0,0,0,0,0,0,0,0,0,0,0,0,0,0,0,0,0,0,0,0,0,0,0,
0,0,0,0,0,0,0,0,0,0,0,0,0,0,0,0,0,0,0,0,0,0,0,0,0,0,0,0,
0,0,0,0,0,0,0,0,0,0,0,0,0,0,0,0,0,0,0,0,0,0,0,0,0,0,0,0,
0,0,0,0,0,0,0,0,0,0,0,0,0,0,0,0,0,0,0,0,0,0,0,0,0,0,0,0,
0,0,0,0,0,0,0,0,0,0,0,0,0,0,0,0,0,0,0,0,0,0,0,0,0,0,0,0,
0,0,0,0,0,0,0,0,0,0,0,0,0,0,0,0,0,0,0,0,0,0,0,0,0,0,0,0,
0,0,0,0,0,0,0,0,0,0,0,0,0,0,0,0,0,0,0,0,0,0,0,0,0,0,0,0,
0,0,0,0,0,0,0,0,0,0,0,0,0,0,0,0,0,0,0,0,0,0,0,0,0,0,0,0,
0,0,0,0,0,0,0,0,0,0,0,0,0,0,0,0,0,0,0,0,0,0,0,0,0,0,0,0,
0,0,0,0,0,0,0,0,0,0,0,0,0,0,0,0,0,0,0,0,0,0,0,0,0,0,0,0,
0,0,0,0,0,0,0,0,0,0,0,0,0,0,0,0,0,0,0,0,0,0,0,0,0,0,0,0,
0,0,0,0,0,0,0,0,0,0,0,0,0,0,0,0,0,0,0,0,0,0,0,0,0,0,0,0,
0,0,0,0,0,0,0,0,0,0,0,0,0,0,0,0,0,0,0,0,0,0,0,0,0,0,0,0,
0,0,0,0,0,0,0,0,0,0,0,0,0,0,60,49,49,49,61,0,0,0,0,0,0,0,0,0,
0,0,0,0,0,0,0,0,0,0,0,0,0,0,48,0,0,0,50,0,0,0,0,0,0,0,0,0,
0,0,0,0,0,0,0,0,0,0,0,0,0,0,48,0,0,0,50,0,0,0,0,0,0,0,0,0,
0,0,0,0,0,0,0,0,0,0,0,0,0,0,48,0,0,0,50,0,0,0,0,0,0,0,0,0,
0,0,0,0,0,0,0,0,0,0,0,0,0,0,63,51,51,51,62,0,0,0,0,0,0,0,0,0,
0,0,0,0,0,0,0,0,0,0,0,0,0,0,0,0,0,0,0,0,0,0,0,0,0,0,0,0,
0,0,0,0,0,0,0,0,0,0,0,0,0,0,0,0,0,0,0,0,0,0,0,0,0,0,0,0,
0,0,0,0,0,0,0,0,0,0,0,0,0,0,0,0,0,0,0,0,0,0,0,0,0,0,0,0,
0,0,0,0,0,0,0,0,0,0,0,0,0,0,0,0,0,0,0,0,0,0,0,0,0,0,0,0,
0,0,0,0,0,0,0,0,0,0,0,0,0,0,0,0,0,0,0,0,0,0,0,0,0,0,0,0,
0,0,0,0,0,0,0,0,0,0,0,0,0,0,0,0,0,0,0,0,0,0,0,0,0,0,0,0,
0,0,0,0,0,0,0,0,0,0,0,0,0,0,0,0,0,0,0,0,0,0,0,0,0,0,0,0,
0,0,0,0,0,0,0,0,0,0,0,0,0,0,0,0,0,0,0,0,0,0,0,0,0,0,0,0,
0,0,0,0,0,0,0,0,0,0,0,0,0,0,0,0,0,0,0,0,0,0,0,0,0,0,0,0
</data>
 </layer>
 <layer id="10" name="object" width="28" height="28">
  <data encoding="csv">
153,154,155,156,153,154,155,156,153,154,155,156,153,154,155,156,153,154,155,156,153,154,155,156,153,154,155,156,
157,158,159,160,157,158,159,160,157,158,159,160,157,158,159,160,157,158,159,160,157,158,159,160,157,158,159,160,
153,154,165,166,162,165,166,162,161,163,163,166,163,166,165,162,165,165,162,164,162,162,163,166,165,164,155,156,
157,158,165,160,157,158,159,160,157,158,159,160,157,158,159,160,157,158,159,160,157,158,159,160,157,161,159,160,
153,154,165,156,148,177,249,239,177,200,179,177,175,196,237,175,177,137,236,169,177,137,169,149,153,163,155,156,
157,158,164,160,195,0,0,0,0,0,0,0,0,0,0,0,0,0,0,0,0,0,0,138,157,163,159,160,
153,154,162,156,170,0,0,0,0,0,0,0,0,0,0,0,0,0,0,0,0,0,0,138,153,166,155,156,
157,158,162,160,235,0,0,146,139,139,139,139,147,0,0,146,139,139,139,139,147,0,0,138,157,165,159,160,
153,154,162,156,252,0,0,138,148,175,236,214,144,0,0,145,200,171,149,153,252,0,0,138,153,161,155,156,
157,158,164,160,174,0,0,145,144,189,0,0,225,0,0,234,0,0,138,157,248,0,0,138,157,163,159,160,
153,154,161,156,170,0,0,0,0,0,0,0,0,0,0,0,0,0,138,153,213,0,0,138,153,164,155,156,
157,158,164,160,178,0,0,0,0,0,0,0,185,0,0,187,0,0,138,157,170,0,0,138,157,162,159,160,
153,154,165,156,176,0,0,146,147,0,0,0,0,0,316,190,194,0,145,179,144,0,0,138,153,164,155,156,
157,158,164,160,174,0,0,138,151,139,139,147,0,0,0,0,246,0,191,188,0,0,0,138,157,164,159,160,
153,154,162,156,199,0,0,145,237,175,149,235,0,0,0,0,0,0,315,0,0,0,0,138,153,166,155,156,
157,158,162,160,238,0,0,0,189,192,138,174,0,0,0,0,0,0,0,0,0,0,0,138,157,161,159,160,
153,154,161,156,174,0,0,0,0,0,138,176,0,0,0,0,0,0,0,242,0,0,0,138,153,166,155,156,
157,158,164,160,178,0,0,0,0,0,138,238,0,0,0,0,0,0,0,0,0,0,0,138,157,163,159,160,
153,154,163,156,235,0,0,0,0,0,145,144,0,0,0,0,0,0,0,0,0,0,0,138,153,164,155,156,
157,158,162,160,248,0,0,0,0,0,0,0,0,0,0,0,243,0,0,0,0,0,0,138,157,162,159,160,
153,154,166,156,195,0,0,0,0,0,0,0,0,0,0,0,0,0,0,0,0,0,0,138,153,166,155,156,
157,158,166,160,215,0,0,0,0,0,0,0,0,0,0,0,0,0,0,0,0,0,0,138,157,164,159,160,
153,154,166,156,174,0,0,0,0,0,0,0,0,0,0,0,0,0,0,0,0,0,0,138,153,164,155,156,
157,158,161,160,151,139,139,139,139,139,139,139,139,139,139,139,139,139,139,139,139,139,139,150,157,164,159,160,
153,154,162,156,153,154,155,156,153,154,155,156,153,154,155,156,153,154,155,156,153,154,155,156,153,164,155,156,
157,158,162,164,166,162,166,166,161,161,161,166,164,162,162,164,164,164,165,162,162,163,166,161,165,166,159,160,
153,154,155,156,153,154,155,156,153,154,155,156,153,154,155,156,153,154,155,156,153,154,155,156,153,154,155,156,
157,158,159,160,157,158,159,160,157,158,159,160,157,158,159,160,157,158,159,160,157,158,159,160,157,158,159,160
</data>
 </layer>
 <layer id="11" name="collision" width="28" height="28">
  <data encoding="csv">
3,3,3,3,3,3,3,3,3,3,3,3,3,3,3,3,3,3,3,3,3,3,3,3,3,3,3,3,
3,3,3,3,3,3,3,3,3,3,3,3,3,3,3,3,3,3,3,3,3,3,3,3,3,3,3,3,
3,3,3,3,3,3,3,3,3,3,3,3,3,3,3,3,3,3,3,3,3,3,3,3,3,3,3,3,
3,3,3,3,3,3,3,3,3,3,3,3,3,3,3,3,3,3,3,3,3,3,3,3,3,3,3,3,
3,3,3,3,1,1,1,1,1,1,1,1,1,1,1,1,1,1,1,1,1,1,1,1,3,3,3,3,
3,3,3,3,1,0,0,0,0,0,0,0,0,0,0,0,0,0,0,0,0,0,0,1,3,3,3,3,
3,3,3,3,1,0,0,0,0,0,0,0,0,0,0,0,0,0,0,0,0,0,0,1,3,3,3,3,
3,3,3,3,1,0,0,1,1,1,1,1,1,0,0,1,1,1,1,1,1,0,0,1,3,3,3,3,
3,3,3,3,1,0,0,1,1,1,1,1,1,0,0,1,1,1,1,3,1,0,0,1,3,3,3,3,
3,3,3,3,1,0,0,1,1,2,0,0,1,0,0,1,0,0,1,3,1,0,0,1,3,3,3,3,
3,3,3,3,1,0,0,0,0,0,0,0,0,0,0,0,0,0,1,3,1,0,0,1,3,3,3,3,
3,3,3,3,1,0,0,0,0,0,0,0,1,0,0,2,0,0,1,3,1,0,0,1,3,3,3,3,
3,3,3,3,1,0,0,1,1,0,0,0,0,0,2,2,2,0,1,1,1,0,0,1,3,3,3,3,
3,3,3,3,1,0,0,1,1,1,1,1,0,0,0,0,2,0,2,2,0,0,0,1,3,3,3,3,
3,3,3,3,1,0,0,1,1,1,1,1,0,0,0,0,0,0,2,0,0,0,0,1,3,3,3,3,
3,3,3,3,1,0,0,0,2,2,1,1,0,0,0,1,1,1,0,0,0,0,0,1,3,3,3,3,
3,3,3,3,1,0,0,0,0,0,1,1,0,0,0,0,1,1,0,1,0,0,0,1,3,3,3,3,
3,3,3,3,1,0,0,0,0,0,1,1,0,0,0,1,1,1,0,0,0,0,0,1,3,3,3,3,
3,3,3,3,1,0,0,0,0,0,1,1,0,0,0,0,0,0,0,0,0,0,0,1,3,3,3,3,
3,3,3,3,1,0,0,0,0,0,0,0,0,0,0,0,1,0,0,0,0,0,0,1,3,3,3,3,
3,3,3,3,1,0,0,0,0,0,0,0,0,0,0,0,0,0,0,0,0,0,0,1,3,3,3,3,
3,3,3,3,1,0,0,0,0,0,0,0,0,0,0,0,0,0,0,0,0,0,0,1,3,3,3,3,
3,3,3,3,1,0,0,0,0,0,0,0,0,0,0,0,0,0,0,0,0,0,0,1,3,3,3,3,
3,3,3,3,1,1,1,1,1,1,1,1,1,1,1,1,1,1,1,1,1,1,1,1,3,3,3,3,
3,3,3,3,3,3,3,3,3,3,3,3,3,3,3,3,3,3,3,3,3,3,3,3,3,3,3,3,
3,3,3,3,3,3,3,3,3,3,3,3,3,3,3,3,3,3,3,3,3,3,3,3,3,3,3,3,
3,3,3,3,3,3,3,3,3,3,3,3,3,3,3,3,3,3,3,3,3,3,3,3,3,3,3,3,
3,3,3,3,3,3,3,3,3,3,3,3,3,3,3,3,3,3,3,3,3,3,3,3,3,3,3,3
</data>
 </layer>
 <objectgroup id="22" name="event">
  <object id="5" name="Stairs Down" type="event" x="1440" y="1440" width="288" height="288">
   <properties>
    <property name="activate" value="on_trigger"/>
    <property name="hotspot" value="location"/>
    <property name="intermap" value="maps/iron_labyrinth_f3.txt"/>
    <property name="set_status" value="emp_il_f3"/>
    <property name="soundfx" value="soundfx/environment/stairs.ogg,0,0"/>
    <property name="tooltip" value="Iron Labyrinth: Level 3"/>
    <property name="unset_status" value="emp_il_f2"/>
   </properties>
  </object>
  <object id="6" name="Spawn point: Stairs down" type="event" x="1248" y="1536" width="96" height="96">
   <properties>
    <property name="intermap_id" value="stairs_down"/>
   </properties>
  </object>
 </objectgroup>
 <objectgroup id="23" name="enemy">
  <object id="7" type="enemy" x="672" y="672" width="960" height="384">
   <properties>
    <property name="category" value="il_common"/>
    <property name="number" value="1,2"/>
    <property name="spawn_level" value="hero_level,1.1"/>
   </properties>
  </object>
  <object id="8" type="enemy" x="672" y="1440" width="288" height="480">
   <properties>
    <property name="category" value="il_common"/>
    <property name="number" value="1,2"/>
    <property name="spawn_level" value="hero_level,1.1"/>
   </properties>
  </object>
 </objectgroup>
</map>
