<?xml version="1.0" encoding="UTF-8"?>
<map version="1.11" tiledversion="1.11.2" orientation="isometric" renderorder="right-down" width="28" height="28" tilewidth="192" tileheight="96" infinite="0" backgroundcolor="#000000" nextlayerid="26" nextobjectid="15">
 <editorsettings>
  <export target="../../../../game/mods/procgen_test/maps/iron_labyrinth/f2/start.txt" format="flare"/>
 </editorsettings>
 <properties>
  <property name="hero_pos" value="11,14"/>
  <property name="procgen_type" value="start"/>
  <property name="tileset" value="tilesetdefs/tileset_ruins.txt"/>
 </properties>
 <tileset firstgid="1" name="collision" tilewidth="192" tileheight="96" tilecount="15" columns="15">
  <image source="../tilesheets/tiled_collision.png" width="2880" height="96"/>
 </tileset>
 <tileset firstgid="16" name="set_rules" tilewidth="192" tileheight="96" tilecount="8" columns="2">
  <image source="../tilesheets/tiled_set_rules.png" width="384" height="384"/>
 </tileset>
 <tileset firstgid="24" name="ruins" tilewidth="192" tileheight="384" tilecount="352" columns="16">
  <image source="../tilesheets/ruins.png" width="3072" height="8448"/>
 </tileset>
 <tileset firstgid="376" name="ruins_door_left" tilewidth="192" tileheight="384" tilecount="2" columns="2">
  <tileoffset x="-48" y="-24"/>
  <image source="../tilesheets/ruins_door_left.png" width="384" height="384"/>
 </tileset>
 <tileset firstgid="378" name="ruins_door_right" tilewidth="192" tileheight="384" tilecount="2" columns="2">
  <tileoffset x="48" y="-24"/>
  <image source="../tilesheets/ruins_door_right.png" width="384" height="384"/>
 </tileset>
 <tileset firstgid="380" name="ruins_2x2" tilewidth="384" tileheight="192" tilecount="4" columns="4">
  <tileoffset x="0" y="48"/>
  <image source="../tilesheets/ruins_2x2.png" width="1536" height="192"/>
 </tileset>
 <tileset firstgid="384" name="boss_chest" tilewidth="192" tileheight="192" tilecount="4" columns="4">
  <image source="../tilesheets/boss_chest.png" width="768" height="192"/>
 </tileset>
 <layer id="9" name="background" width="28" height="28">
  <data encoding="csv">
0,0,0,0,0,0,0,0,0,0,0,0,0,0,0,0,0,0,0,0,0,0,0,0,0,0,0,0,
0,0,0,0,0,0,0,0,0,0,0,0,0,0,0,0,0,0,0,0,0,0,0,0,0,0,0,0,
0,0,0,0,0,0,0,0,0,0,0,0,0,0,0,0,0,0,0,0,0,0,0,0,0,0,0,0,
0,0,0,0,0,0,0,0,0,0,0,0,0,0,0,0,0,0,0,0,0,0,0,0,0,0,0,0,
0,0,0,0,24,25,26,27,24,25,26,27,24,25,26,27,24,25,26,27,24,25,26,27,0,0,0,0,
0,0,0,0,28,42,42,39,40,40,38,39,42,38,39,42,41,40,39,43,38,43,40,31,0,0,0,0,
0,0,0,0,24,42,26,27,24,25,26,27,24,25,26,27,24,25,26,27,24,25,41,27,0,0,0,0,
0,0,0,0,28,38,30,31,28,29,30,31,28,29,30,31,28,29,30,31,28,29,43,31,0,0,0,0,
0,0,0,0,24,38,26,27,24,25,26,27,24,85,26,27,24,25,26,27,24,25,38,27,0,0,0,0,
0,0,0,0,28,38,30,31,28,29,30,31,28,29,84,31,28,29,30,31,28,29,40,31,0,0,0,0,
0,0,0,0,24,42,26,27,24,25,26,27,24,25,26,27,24,25,26,27,24,25,43,27,0,0,0,0,
0,0,0,0,28,42,30,31,28,29,30,31,28,29,30,31,64,29,30,31,28,29,43,31,0,0,0,0,
0,0,0,0,24,41,26,27,24,25,26,27,24,68,26,27,67,25,26,27,24,25,42,27,0,0,0,0,
0,0,0,0,28,40,30,31,85,67,30,31,28,29,30,31,28,29,30,31,28,29,39,31,0,0,0,0,
0,0,0,0,24,38,26,27,24,25,26,27,24,25,85,27,24,25,26,27,24,25,43,27,0,0,0,0,
0,0,0,0,28,38,30,31,28,29,30,31,28,29,30,31,28,29,30,31,28,29,39,31,0,0,0,0,
0,0,0,0,24,40,26,27,40,40,41,41,40,42,43,41,43,40,42,43,24,25,43,27,0,0,0,0,
0,0,0,0,28,38,30,31,43,29,30,41,28,29,30,31,41,29,30,41,28,29,39,31,0,0,0,0,
0,0,0,0,24,38,26,27,43,25,26,42,24,25,26,27,42,25,26,41,24,25,41,27,0,0,0,0,
0,0,0,0,28,41,30,31,41,41,41,41,42,41,41,43,43,41,43,41,28,29,43,31,0,0,0,0,
0,0,0,0,24,43,26,27,24,25,26,27,24,25,26,27,24,25,26,27,24,25,41,27,0,0,0,0,
0,0,0,0,28,39,30,31,28,29,30,31,28,29,30,31,28,29,30,31,28,29,41,31,0,0,0,0,
0,0,0,0,24,39,42,39,38,38,39,43,39,41,41,41,39,39,40,41,43,41,39,27,0,0,0,0,
0,0,0,0,28,29,30,31,28,29,30,31,28,29,30,31,28,29,30,31,28,29,30,31,0,0,0,0,
0,0,0,0,0,0,0,0,0,0,0,0,0,0,0,0,0,0,0,0,0,0,0,0,0,0,0,0,
0,0,0,0,0,0,0,0,0,0,0,0,0,0,0,0,0,0,0,0,0,0,0,0,0,0,0,0,
0,0,0,0,0,0,0,0,0,0,0,0,0,0,0,0,0,0,0,0,0,0,0,0,0,0,0,0,
0,0,0,0,0,0,0,0,0,0,0,0,0,0,0,0,0,0,0,0,0,0,0,0,0,0,0,0
</data>
 </layer>
 <layer id="12" name="background_fringe" width="28" height="28">
  <data encoding="csv">
0,0,0,0,0,0,0,0,0,0,0,0,0,0,0,0,0,0,0,0,0,0,0,0,0,0,0,0,
0,0,0,0,0,0,0,0,0,0,0,0,0,0,0,0,0,0,0,0,0,0,0,0,0,0,0,0,
0,0,0,0,0,0,0,0,0,0,0,0,0,0,0,0,0,0,0,0,0,0,0,0,0,0,0,0,
0,0,0,0,0,0,0,0,0,0,0,0,0,0,0,0,0,0,0,0,0,0,0,0,0,0,0,0,
0,0,0,0,0,0,0,0,0,0,0,0,0,0,0,0,0,0,0,0,0,0,0,0,0,0,0,0,
0,0,0,0,0,0,0,0,0,0,0,0,0,0,0,0,0,0,0,0,0,0,0,0,0,0,0,0,
0,0,0,0,0,0,0,0,0,0,0,0,0,0,0,0,0,0,0,0,0,0,0,0,0,0,0,0,
0,0,0,0,0,0,0,0,0,0,0,0,0,0,0,0,0,0,0,0,0,0,0,0,0,0,0,0,
0,0,0,0,0,0,0,0,0,0,0,0,0,0,0,0,0,0,0,0,0,0,0,0,0,0,0,0,
0,0,0,0,0,0,0,0,0,0,0,0,0,0,0,0,0,0,0,0,0,0,0,0,0,0,0,0,
0,0,0,0,0,0,0,0,0,0,0,0,0,0,0,0,0,0,0,0,0,0,0,0,0,0,0,0,
0,0,0,0,0,0,0,0,0,0,0,0,0,0,0,0,0,0,0,0,0,0,0,0,0,0,0,0,
0,0,0,0,0,0,0,0,0,0,0,0,0,0,0,0,0,0,0,0,0,0,0,0,0,0,0,0,
0,0,0,0,0,0,0,0,0,0,0,0,0,0,0,0,0,0,0,0,0,0,0,0,0,0,0,0,
0,0,0,0,0,0,0,0,0,0,0,0,0,0,0,0,0,0,0,0,0,0,0,0,0,0,0,0,
0,0,0,0,0,0,0,0,0,0,0,0,0,0,0,0,0,0,0,0,0,0,0,0,0,0,0,0,
0,0,0,0,0,0,0,0,0,0,0,0,0,0,0,0,0,0,0,0,0,0,0,0,0,0,0,0,
0,0,0,0,0,0,0,0,0,0,0,0,0,0,0,0,0,0,0,0,0,0,0,0,0,0,0,0,
0,0,0,0,0,0,0,0,0,381,0,0,0,0,0,0,0,0,0,0,0,0,0,0,0,0,0,0,
0,0,0,0,0,0,0,0,0,0,0,0,0,0,0,0,0,0,0,0,0,0,0,0,0,0,0,0,
0,0,0,0,0,0,0,0,0,0,0,0,0,0,0,0,0,0,0,0,0,0,0,0,0,0,0,0,
0,0,0,0,0,0,0,0,0,0,0,0,0,0,0,0,0,0,0,0,0,0,0,0,0,0,0,0,
0,0,0,0,0,0,0,0,0,0,0,0,0,0,0,0,0,0,0,0,0,0,0,0,0,0,0,0,
0,0,0,0,0,0,0,0,0,0,0,0,0,0,0,0,0,0,0,0,0,0,0,0,0,0,0,0,
0,0,0,0,0,0,0,0,0,0,0,0,0,0,0,0,0,0,0,0,0,0,0,0,0,0,0,0,
0,0,0,0,0,0,0,0,0,0,0,0,0,0,0,0,0,0,0,0,0,0,0,0,0,0,0,0,
0,0,0,0,0,0,0,0,0,0,0,0,0,0,0,0,0,0,0,0,0,0,0,0,0,0,0,0,
0,0,0,0,0,0,0,0,0,0,0,0,0,0,0,0,0,0,0,0,0,0,0,0,0,0,0,0
</data>
 </layer>
 <layer id="10" name="object" width="28" height="28">
  <data encoding="csv">
153,154,155,156,153,154,155,156,153,154,155,156,153,154,155,156,153,154,155,156,153,154,155,156,153,154,155,156,
157,158,159,160,157,158,159,160,157,158,159,160,157,158,159,160,157,158,159,160,157,158,159,160,157,158,159,160,
153,154,165,166,162,165,166,162,161,163,163,166,163,166,165,162,165,165,162,164,162,162,163,166,165,164,155,156,
157,158,165,160,157,158,159,160,157,158,159,160,157,158,159,160,157,158,159,160,157,158,159,160,157,161,159,160,
153,154,165,156,148,169,236,137,171,175,214,175,216,175,171,137,141,175,214,237,179,175,137,149,153,163,155,156,
157,158,164,160,170,0,0,0,0,0,0,0,0,0,0,0,0,0,0,0,0,0,0,138,157,163,159,160,
153,154,162,156,136,0,0,0,0,0,0,0,0,0,0,0,0,0,0,0,0,0,0,138,153,166,155,156,
157,158,162,160,168,0,0,0,0,0,0,0,0,0,0,0,0,0,0,0,0,0,0,138,157,165,159,160,
153,154,162,156,176,0,0,0,211,139,139,139,222,0,0,0,0,146,139,222,0,0,0,138,153,161,155,156,
157,158,164,160,140,0,0,0,138,148,177,196,182,0,0,0,0,138,153,235,0,0,0,138,157,163,159,160,
153,154,161,156,178,0,0,0,138,178,0,0,337,194,0,0,0,138,157,248,0,0,0,138,153,164,155,156,
157,158,164,160,136,0,0,0,138,174,0,0,336,188,0,0,0,202,237,201,0,0,0,138,157,162,159,160,
153,154,165,156,195,0,0,0,206,219,333,334,335,312,0,0,191,191,0,0,0,0,0,138,153,164,155,156,
157,158,164,160,170,0,0,0,0,189,0,0,0,0,0,0,0,0,0,0,0,0,0,138,157,164,159,160,
153,154,162,156,140,0,0,0,0,0,0,0,0,0,0,0,0,0,0,0,0,0,0,138,153,166,155,156,
157,158,162,160,174,0,0,0,0,0,0,0,0,0,0,0,0,0,0,0,0,0,0,138,157,161,159,160,
153,154,161,156,235,0,0,0,185,0,0,186,0,0,0,0,231,190,0,225,0,0,0,138,153,166,155,156,
157,158,164,160,195,0,0,0,0,0,0,0,0,146,222,0,0,0,0,0,0,0,0,138,157,163,159,160,
153,154,163,156,238,0,0,0,0,0,0,0,0,220,144,0,0,0,0,0,0,0,0,138,153,164,155,156,
157,158,162,160,136,0,0,0,230,0,0,187,0,0,0,0,223,0,0,229,0,0,0,138,157,162,159,160,
153,154,166,156,240,0,0,0,0,0,0,0,0,0,0,0,0,0,0,0,0,0,0,138,153,166,155,156,
157,158,166,160,176,0,0,0,0,0,0,0,0,0,0,0,0,0,0,0,0,0,0,138,157,164,159,160,
153,154,166,156,136,0,0,0,0,0,0,0,0,0,0,0,0,0,0,0,0,0,0,138,153,164,155,156,
157,158,161,160,151,139,139,139,139,139,139,139,139,139,139,139,139,139,139,139,139,139,139,150,157,164,159,160,
153,154,162,156,153,154,155,156,153,154,155,156,153,154,155,156,153,154,155,156,153,154,155,156,153,164,155,156,
157,158,162,164,166,162,166,166,161,161,161,166,164,162,162,164,164,164,165,162,162,163,166,161,165,166,159,160,
153,154,155,156,153,154,155,156,153,154,155,156,153,154,155,156,153,154,155,156,153,154,155,156,153,154,155,156,
157,158,159,160,157,158,159,160,157,158,159,160,157,158,159,160,157,158,159,160,157,158,159,160,157,158,159,160
</data>
 </layer>
 <layer id="11" name="collision" width="28" height="28">
  <data encoding="csv">
3,3,3,3,3,3,3,3,3,3,3,3,3,3,3,3,3,3,3,3,3,3,3,3,3,3,3,3,
3,3,3,3,3,3,3,3,3,3,3,3,3,3,3,3,3,3,3,3,3,3,3,3,3,3,3,3,
3,3,3,3,3,3,3,3,3,3,3,3,3,3,3,3,3,3,3,3,3,3,3,3,3,3,3,3,
3,3,3,3,3,3,3,3,3,3,3,3,3,3,3,3,3,3,3,3,3,3,3,3,3,3,3,3,
3,3,3,3,1,1,1,1,1,1,1,1,1,1,1,1,1,1,1,1,1,1,1,1,3,3,3,3,
3,3,3,3,1,0,0,0,0,0,0,0,0,0,0,0,0,0,0,0,0,0,0,1,3,3,3,3,
3,3,3,3,1,0,0,0,0,0,0,0,0,0,0,0,0,0,0,0,0,0,0,1,3,3,3,3,
3,3,3,3,1,0,0,0,0,0,0,0,0,0,0,0,0,0,0,0,0,0,0,1,3,3,3,3,
3,3,3,3,1,0,0,0,1,1,1,1,1,0,0,0,0,1,1,1,0,0,0,1,3,3,3,3,
3,3,3,3,1,0,0,0,1,1,1,1,1,0,0,0,0,1,3,1,0,0,0,1,3,3,3,3,
3,3,3,3,1,0,0,0,1,1,1,1,1,2,0,0,0,1,3,1,0,0,0,1,3,3,3,3,
3,3,3,3,1,0,0,0,1,1,1,1,1,2,0,0,0,1,1,1,0,0,0,1,3,3,3,3,
3,3,3,3,1,0,0,0,1,1,1,0,1,2,0,0,2,2,0,0,0,0,0,1,3,3,3,3,
3,3,3,3,1,0,0,0,0,2,0,0,0,0,0,0,0,0,0,0,0,0,0,1,3,3,3,3,
3,3,3,3,1,0,0,0,0,0,0,0,0,0,0,0,0,0,0,0,0,0,0,1,3,3,3,3,
3,3,3,3,1,0,0,0,0,0,0,0,0,0,0,0,0,0,0,0,0,0,0,1,3,3,3,3,
3,3,3,3,1,0,0,0,1,0,0,1,0,0,0,0,1,2,0,1,0,0,0,1,3,3,3,3,
3,3,3,3,1,0,0,0,0,0,0,0,0,1,1,0,0,0,0,0,0,0,0,1,3,3,3,3,
3,3,3,3,1,0,0,0,0,0,0,0,0,1,1,0,0,0,0,0,0,0,0,1,3,3,3,3,
3,3,3,3,1,0,0,0,1,0,0,2,0,0,0,0,1,0,0,1,0,0,0,1,3,3,3,3,
3,3,3,3,1,0,0,0,0,0,0,0,0,0,0,0,0,0,0,0,0,0,0,1,3,3,3,3,
3,3,3,3,1,0,0,0,0,0,0,0,0,0,0,0,0,0,0,0,0,0,0,1,3,3,3,3,
3,3,3,3,1,0,0,0,0,0,0,0,0,0,0,0,0,0,0,0,0,0,0,1,3,3,3,3,
3,3,3,3,1,1,1,1,1,1,1,1,1,1,1,1,1,1,1,1,1,1,1,1,3,3,3,3,
3,3,3,3,3,3,3,3,3,3,3,3,3,3,3,3,3,3,3,3,3,3,3,3,3,3,3,3,
3,3,3,3,3,3,3,3,3,3,3,3,3,3,3,3,3,3,3,3,3,3,3,3,3,3,3,3,
3,3,3,3,3,3,3,3,3,3,3,3,3,3,3,3,3,3,3,3,3,3,3,3,3,3,3,3,
3,3,3,3,3,3,3,3,3,3,3,3,3,3,3,3,3,3,3,3,3,3,3,3,3,3,3,3
</data>
 </layer>
 <objectgroup id="22" name="event">
  <object id="5" name="Stairs Up" type="event" x="960" y="960" width="288" height="288">
   <properties>
    <property name="activate" value="on_trigger"/>
    <property name="hotspot" value="location"/>
    <property name="intermap" value="maps/iron_labyrinth_f1.txt,-1,-1,stairs_down"/>
    <property name="set_status" value="emp_il_f1"/>
    <property name="soundfx" value="soundfx/environment/stairs.ogg,0,0"/>
    <property name="tooltip" value="Iron Labyrinth: Level 1"/>
    <property name="unset_status" value="emp_il_f2"/>
   </properties>
  </object>
  <object id="10" name="Reset Floor" type="event" x="0" y="0" width="96" height="96">
   <properties>
    <property name="activate" value="on_load"/>
    <property name="unset_status" value="emp_il_f2_reset"/>
   </properties>
  </object>
  <object id="13" name="Activate Tele" type="event" x="96" y="0" width="96" height="96">
   <properties>
    <property name="activate" value="on_load"/>
    <property name="set_status" value="emp_il_f2_tele"/>
   </properties>
  </object>
  <object id="12" name="Spawn point: Entrance tele" type="event" x="864" y="1440" width="96" height="96">
   <properties>
    <property name="intermap_id" value="entrance_tele"/>
   </properties>
  </object>
  <object id="14" name="Entrance Tele" type="event" x="864" y="1632" width="192" height="192">
   <properties>
    <property name="activate" value="on_trigger"/>
    <property name="hotspot" value="location"/>
    <property name="intermap" value="maps/perdition_harbor_cave.txt,-1,-1,obelisk"/>
    <property name="repeat" value="false"/>
    <property name="soundfx" value="soundfx/environment/teleporter.ogg,0,0"/>
    <property name="tooltip" value="Perdition Harbor Cave"/>
   </properties>
  </object>
 </objectgroup>
</map>
