<?xml version="1.0" encoding="UTF-8"?>
<map version="1.11" tiledversion="1.11.2" orientation="isometric" renderorder="right-down" width="28" height="28" tilewidth="192" tileheight="96" infinite="0" backgroundcolor="#000000" nextlayerid="34" nextobjectid="12">
 <editorsettings>
     <export target="../../../../game/mods/procgen_test/maps/iron_labyrinth/f3/door_ns.txt" format="flare"/>
 </editorsettings>
 <properties>
  <property name="hero_pos" value="12,8"/>
  <property name="procgen_type" value="door_north_south"/>
  <property name="tileset" value="tilesetdefs/tileset_ruins.txt"/>
 </properties>
 <tileset firstgid="1" name="collision" tilewidth="192" tileheight="96" tilecount="15" columns="15">
  <image source="../tilesheets/tiled_collision.png" width="2880" height="96"/>
 </tileset>
 <tileset firstgid="16" name="set_rules" tilewidth="192" tileheight="96" tilecount="8" columns="2">
  <image source="../tilesheets/tiled_set_rules.png" width="384" height="384"/>
 </tileset>
 <tileset firstgid="24" name="ruins" tilewidth="192" tileheight="384" tilecount="352" columns="16">
  <image source="../tilesheets/ruins.png" width="3072" height="8448"/>
 </tileset>
 <tileset firstgid="376" name="ruins_door_left" tilewidth="192" tileheight="384" tilecount="2" columns="2">
  <tileoffset x="-48" y="-24"/>
  <image source="../tilesheets/ruins_door_left.png" width="384" height="384"/>
 </tileset>
 <tileset firstgid="378" name="ruins_door_right" tilewidth="192" tileheight="384" tilecount="2" columns="2">
  <tileoffset x="48" y="-24"/>
  <image source="../tilesheets/ruins_door_right.png" width="384" height="384"/>
 </tileset>
 <tileset firstgid="380" name="ruins_2x2" tilewidth="384" tileheight="192" tilecount="4" columns="4">
  <tileoffset x="0" y="48"/>
  <image source="../tilesheets/ruins_2x2.png" width="1536" height="192"/>
 </tileset>
 <tileset firstgid="384" name="boss_chest" tilewidth="192" tileheight="192" tilecount="4" columns="4">
  <image source="../tilesheets/boss_chest.png" width="768" height="192"/>
 </tileset>
 <layer id="9" name="background" width="28" height="28">
  <data encoding="csv">
0,0,0,0,0,0,0,0,0,0,0,0,0,0,0,0,0,0,0,0,0,0,0,0,0,0,0,0,
0,0,0,0,0,0,0,0,0,0,0,0,0,0,0,0,0,0,0,0,0,0,0,0,0,0,0,0,
0,0,0,0,0,0,0,0,0,0,0,0,0,0,0,0,0,0,0,0,0,0,0,0,0,0,0,0,
0,0,0,0,0,0,0,0,0,0,0,0,0,0,0,0,0,0,0,0,0,0,0,0,0,0,0,0,
0,0,0,0,0,0,0,0,24,25,26,27,24,25,26,27,24,25,26,27,0,0,0,0,0,0,0,0,
0,0,0,0,0,0,0,0,28,43,41,40,38,39,43,38,42,39,40,31,0,0,0,0,0,0,0,0,
0,0,0,0,0,0,0,0,24,39,26,27,24,25,26,27,24,25,38,27,0,0,0,0,0,0,0,0,
0,0,0,0,0,0,0,0,28,40,43,38,28,29,30,31,42,39,43,31,0,0,0,0,0,0,0,0,
0,0,0,0,0,0,0,0,24,25,26,39,24,25,26,27,40,25,26,27,0,0,0,0,0,0,0,0,
0,0,0,0,0,0,0,0,0,0,30,41,28,29,30,31,43,29,0,0,0,0,0,0,0,0,0,0,
0,0,0,0,0,0,0,0,0,0,26,42,24,25,26,27,39,25,0,0,0,0,0,0,0,0,0,0,
0,0,0,0,0,0,0,0,0,0,30,39,42,29,30,39,41,29,0,0,0,0,0,0,0,0,0,0,
0,0,0,0,0,0,0,0,0,0,26,27,38,25,26,40,24,25,0,0,0,0,0,0,0,0,0,0,
0,0,0,0,0,0,0,0,0,0,0,31,38,29,30,41,28,0,0,0,0,0,0,0,0,0,0,0,
0,0,0,0,0,0,0,0,0,0,0,27,39,25,26,38,24,0,0,0,0,0,0,0,0,0,0,0,
0,0,0,0,0,0,0,0,0,0,30,31,39,29,30,40,28,29,0,0,0,0,0,0,0,0,0,0,
0,0,0,0,0,0,0,0,0,0,26,39,43,25,26,40,40,25,0,0,0,0,0,0,0,0,0,0,
0,0,0,0,0,0,0,0,0,0,30,42,28,29,30,31,41,29,0,0,0,0,0,0,0,0,0,0,
0,0,0,0,0,0,0,0,0,0,26,41,24,25,26,27,41,25,0,0,0,0,0,0,0,0,0,0,
0,0,0,0,0,0,0,0,28,29,30,40,28,29,30,31,41,29,30,31,0,0,0,0,0,0,0,0,
0,0,0,0,0,0,0,0,24,38,41,41,24,25,26,27,40,39,38,27,0,0,0,0,0,0,0,0,
0,0,0,0,0,0,0,0,28,43,30,31,28,29,30,31,28,29,41,31,0,0,0,0,0,0,0,0,
0,0,0,0,0,0,0,0,24,43,43,40,40,43,39,40,40,39,40,27,0,0,0,0,0,0,0,0,
0,0,0,0,0,0,0,0,28,29,30,31,28,29,30,31,28,29,30,31,0,0,0,0,0,0,0,0,
0,0,0,0,0,0,0,0,0,0,0,0,0,0,0,0,0,0,0,0,0,0,0,0,0,0,0,0,
0,0,0,0,0,0,0,0,0,0,0,0,0,0,0,0,0,0,0,0,0,0,0,0,0,0,0,0,
0,0,0,0,0,0,0,0,0,0,0,0,0,0,0,0,0,0,0,0,0,0,0,0,0,0,0,0,
0,0,0,0,0,0,0,0,0,0,0,0,0,0,0,0,0,0,0,0,0,0,0,0,0,0,0,0
</data>
 </layer>
 <layer id="12" name="background_fringe" width="28" height="28">
  <data encoding="csv">
0,0,0,0,0,0,0,0,0,0,0,0,0,0,0,0,0,0,0,0,0,0,0,0,0,0,0,0,
0,0,0,0,0,0,0,0,0,0,0,0,0,0,0,0,0,0,0,0,0,0,0,0,0,0,0,0,
0,0,0,0,0,0,0,0,0,0,0,0,0,0,0,0,0,0,0,0,0,0,0,0,0,0,0,0,
0,0,0,0,0,0,0,0,0,0,0,0,0,0,0,0,0,0,0,0,0,0,0,0,0,0,0,0,
0,0,0,0,0,0,0,0,0,0,0,0,0,0,0,0,0,0,0,0,0,0,0,0,0,0,0,0,
0,0,0,0,0,0,0,0,0,0,0,0,0,0,0,0,0,0,0,0,0,0,0,0,0,0,0,0,
0,0,0,0,0,0,0,0,0,0,0,0,0,0,0,0,0,0,0,0,0,0,0,0,0,0,0,0,
0,0,0,0,0,0,0,0,0,0,0,0,0,0,0,0,0,0,0,0,0,0,0,0,0,0,0,0,
0,0,0,0,0,0,0,0,0,0,0,0,0,0,0,0,0,0,0,0,0,0,0,0,0,0,0,0,
0,0,0,0,0,0,0,0,0,0,0,0,0,0,0,0,0,0,0,0,0,0,0,0,0,0,0,0,
0,0,0,0,0,0,0,0,0,0,0,0,0,0,0,0,0,0,0,0,0,0,0,0,0,0,0,0,
0,0,0,0,0,0,0,0,0,0,0,0,0,0,0,0,0,0,0,0,0,0,0,0,0,0,0,0,
0,0,0,0,0,0,0,0,0,0,0,0,0,0,0,0,0,0,0,0,0,0,0,0,0,0,0,0,
0,0,0,0,0,0,0,0,0,0,0,0,0,0,0,0,0,0,0,0,0,0,0,0,0,0,0,0,
0,0,0,0,0,0,0,0,0,0,0,0,0,0,0,0,0,0,0,0,0,0,0,0,0,0,0,0,
0,0,0,0,0,0,0,0,0,0,0,0,0,0,0,0,0,0,0,0,0,0,0,0,0,0,0,0,
0,0,0,0,0,0,0,0,0,0,0,0,0,0,0,0,0,0,0,0,0,0,0,0,0,0,0,0,
0,0,0,0,0,0,0,0,0,0,0,0,0,0,0,0,0,0,0,0,0,0,0,0,0,0,0,0,
0,0,0,0,0,0,0,0,0,0,0,0,0,0,0,0,0,0,0,0,0,0,0,0,0,0,0,0,
0,0,0,0,0,0,0,0,0,0,0,0,0,0,0,0,0,0,0,0,0,0,0,0,0,0,0,0,
0,0,0,0,0,0,0,0,0,0,0,0,0,0,0,0,0,0,0,0,0,0,0,0,0,0,0,0,
0,0,0,0,0,0,0,0,0,0,0,0,0,0,0,0,0,0,0,0,0,0,0,0,0,0,0,0,
0,0,0,0,0,0,0,0,0,0,0,0,0,0,0,0,0,0,0,0,0,0,0,0,0,0,0,0,
0,0,0,0,0,0,0,0,0,0,0,0,0,0,0,0,0,0,0,0,0,0,0,0,0,0,0,0,
0,0,0,0,0,0,0,0,0,0,0,0,0,0,0,0,0,0,0,0,0,0,0,0,0,0,0,0,
0,0,0,0,0,0,0,0,0,0,0,0,0,0,0,0,0,0,0,0,0,0,0,0,0,0,0,0,
0,0,0,0,0,0,0,0,0,0,0,0,0,0,0,0,0,0,0,0,0,0,0,0,0,0,0,0,
0,0,0,0,0,0,0,0,0,0,0,0,0,0,0,0,0,0,0,0,0,0,0,0,0,0,0,0
</data>
 </layer>
 <layer id="10" name="object" width="28" height="28">
  <data encoding="csv">
153,154,155,156,153,154,155,156,153,154,155,156,153,154,155,156,153,154,155,156,153,154,155,156,153,154,155,156,
157,158,159,160,157,158,159,160,157,158,159,160,157,158,159,160,157,158,159,160,157,158,159,160,157,158,159,160,
153,154,155,156,153,154,165,161,166,163,165,165,164,163,164,165,164,166,163,165,163,165,155,156,153,154,155,156,
157,158,159,160,157,158,163,160,157,158,159,160,157,158,159,160,157,158,159,160,157,164,159,160,157,158,159,160,
153,154,155,156,153,154,166,156,148,171,179,239,137,200,177,239,175,196,171,149,153,162,155,156,153,154,155,156,
157,158,159,160,157,158,161,160,174,0,0,0,0,0,0,0,0,0,0,138,157,161,159,160,157,158,159,160,
153,154,155,156,153,154,166,156,240,0,0,0,0,0,0,0,0,0,0,138,153,166,155,156,153,154,155,156,
157,158,159,160,157,158,166,160,170,0,0,0,0,0,0,0,0,0,0,138,157,165,159,160,157,158,159,160,
153,154,155,156,153,154,161,156,151,139,147,0,0,0,0,0,0,146,139,150,153,164,155,156,153,154,155,156,
157,158,159,160,157,158,166,160,157,158,235,0,0,0,0,0,0,138,159,160,157,165,159,160,157,158,159,160,
153,154,155,156,153,154,163,166,165,154,174,0,0,0,0,0,0,138,155,164,163,166,155,156,153,154,155,156,
157,158,159,160,157,158,159,160,163,158,178,0,0,0,0,0,0,138,159,164,157,158,159,160,157,158,159,160,
153,154,155,156,153,154,155,156,165,154,151,222,0,0,0,0,221,150,155,163,153,154,155,156,153,154,155,156,
157,158,159,160,157,158,159,160,165,158,159,168,0,0,0,0,138,158,159,162,157,158,159,160,157,158,159,160,
153,154,155,156,153,154,155,156,162,154,155,174,368,378,379,370,138,154,155,162,153,154,155,156,153,154,155,156,
157,158,159,160,157,158,159,160,164,158,148,219,0,0,0,0,220,149,159,161,157,158,159,160,157,158,159,160,
153,154,155,156,153,154,155,156,161,154,235,0,0,0,0,0,0,138,155,164,153,154,155,156,153,154,155,156,
157,158,159,160,157,158,164,162,166,158,238,0,0,0,0,0,0,138,159,163,161,162,159,160,157,158,159,160,
153,154,155,156,153,154,161,156,153,154,178,0,0,0,0,0,0,138,155,156,153,164,155,156,153,154,155,156,
157,158,159,160,157,158,164,160,148,237,144,0,0,0,0,0,0,210,171,149,157,164,159,160,157,158,159,160,
153,154,155,156,153,154,163,156,213,0,0,0,0,0,0,0,0,0,0,138,153,166,155,156,153,154,155,156,
157,158,159,160,157,158,161,160,174,0,0,0,0,0,0,0,0,0,0,138,157,164,159,160,157,158,159,160,
153,154,155,156,153,154,164,156,199,0,0,0,0,0,0,0,0,0,0,138,153,161,155,156,153,154,155,156,
157,158,159,160,157,158,163,160,151,139,139,139,139,139,139,139,139,139,139,150,157,163,159,160,157,158,159,160,
153,154,155,156,153,154,165,156,153,154,155,156,153,154,155,156,153,154,155,156,153,162,155,156,153,154,155,156,
157,158,159,160,157,158,164,163,162,163,161,165,165,164,161,163,163,166,166,162,164,162,159,160,157,158,159,160,
153,154,155,156,153,154,155,156,153,154,155,156,153,154,155,156,153,154,155,156,153,154,155,156,153,154,155,156,
157,158,159,160,157,158,159,160,157,158,159,160,157,158,159,160,157,158,159,160,157,158,159,160,157,158,159,160
</data>
 </layer>
 <layer id="11" name="collision" width="28" height="28">
  <data encoding="csv">
3,3,3,3,3,3,3,3,3,3,3,3,3,3,3,3,3,3,3,3,3,3,3,3,3,3,3,3,
3,3,3,3,3,3,3,3,3,3,3,3,3,3,3,3,3,3,3,3,3,3,3,3,3,3,3,3,
3,3,3,3,3,3,3,3,3,3,3,3,3,3,3,3,3,3,3,3,3,3,3,3,3,3,3,3,
3,3,3,3,3,3,3,3,3,3,3,3,3,3,3,3,3,3,3,3,3,3,3,3,3,3,3,3,
3,3,3,3,3,3,3,3,1,1,1,1,1,1,1,1,1,1,1,1,3,3,3,3,3,3,3,3,
3,3,3,3,3,3,3,3,1,0,0,0,0,0,0,0,0,0,0,1,3,3,3,3,3,3,3,3,
3,3,3,3,3,3,3,3,1,0,0,0,0,0,0,0,0,0,0,1,3,3,3,3,3,3,3,3,
3,3,3,3,3,3,3,3,1,0,0,0,0,0,0,0,0,0,0,1,3,3,3,3,3,3,3,3,
3,3,3,3,3,3,3,3,1,1,1,0,0,0,0,0,0,1,1,1,3,3,3,3,3,3,3,3,
3,3,3,3,3,3,3,3,3,3,1,0,0,0,0,0,0,1,3,3,3,3,3,3,3,3,3,3,
3,3,3,3,3,3,3,3,3,3,1,0,0,0,0,0,0,1,3,3,3,3,3,3,3,3,3,3,
3,3,3,3,3,3,3,3,3,3,1,0,0,0,0,0,0,1,3,3,3,3,3,3,3,3,3,3,
3,3,3,3,3,3,3,3,3,3,1,1,0,0,0,0,1,1,3,3,3,3,3,3,3,3,3,3,
3,3,3,3,3,3,3,3,3,3,3,1,1,1,1,1,1,3,3,3,3,3,3,3,3,3,3,3,
3,3,3,3,3,3,3,3,3,3,3,1,1,1,1,1,1,3,3,3,3,3,3,3,3,3,3,3,
3,3,3,3,3,3,3,3,3,3,1,1,0,0,0,0,1,1,3,3,3,3,3,3,3,3,3,3,
3,3,3,3,3,3,3,3,3,3,1,0,0,0,0,0,0,1,3,3,3,3,3,3,3,3,3,3,
3,3,3,3,3,3,3,3,3,3,1,0,0,0,0,0,0,1,3,3,3,3,3,3,3,3,3,3,
3,3,3,3,3,3,3,3,3,3,1,0,0,0,0,0,0,1,3,3,3,3,3,3,3,3,3,3,
3,3,3,3,3,3,3,3,1,1,1,0,0,0,0,0,0,1,1,1,3,3,3,3,3,3,3,3,
3,3,3,3,3,3,3,3,1,0,0,0,0,0,0,0,0,0,0,1,3,3,3,3,3,3,3,3,
3,3,3,3,3,3,3,3,1,0,0,0,0,0,0,0,0,0,0,1,3,3,3,3,3,3,3,3,
3,3,3,3,3,3,3,3,1,0,0,0,0,0,0,0,0,0,0,1,3,3,3,3,3,3,3,3,
3,3,3,3,3,3,3,3,1,1,1,1,1,1,1,1,1,1,1,1,3,3,3,3,3,3,3,3,
3,3,3,3,3,3,3,3,3,3,3,3,3,3,3,3,3,3,3,3,3,3,3,3,3,3,3,3,
3,3,3,3,3,3,3,3,3,3,3,3,3,3,3,3,3,3,3,3,3,3,3,3,3,3,3,3,
3,3,3,3,3,3,3,3,3,3,3,3,3,3,3,3,3,3,3,3,3,3,3,3,3,3,3,3,
3,3,3,3,3,3,3,3,3,3,3,3,3,3,3,3,3,3,3,3,3,3,3,3,3,3,3,3
</data>
 </layer>
 <objectgroup id="24" name="event">
  <object id="7" name="Locked Door (lvl 1)" type="event" x="1248" y="1248" width="192" height="192">
   <properties>
    <property name="activate" value="on_trigger"/>
    <property name="hotspot" value="location"/>
    <property name="msg" value="This door needs a key to be opened."/>
    <property name="requires_door_level" value="1"/>
    <property name="requires_not_item" value="1105"/>
    <property name="requires_not_status" value="emp_il_f3_door1"/>
    <property name="tooltip" value="Locked Door"/>
   </properties>
  </object>
  <object id="8" name="Locked Door (lvl 2)" type="event" x="1248" y="1248" width="192" height="192">
   <properties>
    <property name="activate" value="on_trigger"/>
    <property name="hotspot" value="location"/>
    <property name="msg" value="This door needs a key to be opened."/>
    <property name="requires_door_level" value="2"/>
    <property name="requires_not_item" value="1105"/>
    <property name="requires_not_status" value="emp_il_f3_door2"/>
    <property name="requires_status" value="emp_il_f3_door1"/>
    <property name="tooltip" value="Locked Door"/>
   </properties>
  </object>
  <object id="5" name="Unlock Door (lvl 1)" type="event" x="1248" y="1248" width="192" height="192">
   <properties>
    <property name="activate" value="on_trigger"/>
    <property name="hotspot" value="location"/>
    <property name="mapmod" value="object,12,14,364;object,15,14,362;object,13,14,0;object,14,14,0;collision,13,13,0;collision,13,14,0;collision,14,13,0;collision,14,14,0"/>
    <property name="remove_item" value="1105:1"/>
    <property name="requires_door_level" value="1"/>
    <property name="requires_item" value="1105"/>
    <property name="requires_not_status" value="emp_il_f3_door1"/>
    <property name="set_status" value="emp_il_f3_door1"/>
    <property name="soundfx" value="soundfx/door_open.ogg"/>
    <property name="tooltip" value="Locked Door"/>
   </properties>
  </object>
  <object id="6" name="Unlock Door (lvl 2)" type="event" x="1248" y="1248" width="192" height="192">
   <properties>
    <property name="activate" value="on_trigger"/>
    <property name="hotspot" value="location"/>
    <property name="mapmod" value="object,12,14,364;object,15,14,362;object,13,14,0;object,14,14,0;collision,13,13,0;collision,13,14,0;collision,14,13,0;collision,14,14,0"/>
    <property name="remove_item" value="1105:1"/>
    <property name="requires_door_level" value="2"/>
    <property name="requires_item" value="1105"/>
    <property name="requires_not_status" value="emp_il_f3_door2"/>
    <property name="requires_status" value="emp_il_f3_door1"/>
    <property name="set_status" value="emp_il_f3_door2"/>
    <property name="soundfx" value="soundfx/door_open.ogg"/>
    <property name="tooltip" value="Locked Door"/>
   </properties>
  </object>
  <object id="10" name="Unlock Door (lvl 1, on_load)" type="event" x="768" y="1152" width="96" height="96">
   <properties>
    <property name="activate" value="on_load"/>
    <property name="mapmod" value="object,12,14,364;object,15,14,362;object,13,14,0;object,14,14,0;collision,13,13,0;collision,13,14,0;collision,14,13,0;collision,14,14,0"/>
    <property name="requires_door_level" value="1"/>
    <property name="requires_status" value="emp_il_f3_door1"/>
   </properties>
  </object>
  <object id="9" name="Unlock Door (lvl 2, on_load)" type="event" x="768" y="1056" width="96" height="96">
   <properties>
    <property name="activate" value="on_load"/>
    <property name="mapmod" value="object,12,14,364;object,15,14,362;object,13,14,0;object,14,14,0;collision,13,13,0;collision,13,14,0;collision,14,13,0;collision,14,14,0"/>
    <property name="requires_door_level" value="2"/>
    <property name="requires_status" value="emp_il_f3_door2"/>
   </properties>
  </object>
 </objectgroup>
 <objectgroup id="33" name="enemy">
  <object id="11" type="enemy" x="864" y="480" width="960" height="1728">
   <properties>
    <property name="category" value="il_common"/>
    <property name="number" value="3,5"/>
    <property name="spawn_level" value="level,1,1"/>
   </properties>
  </object>
 </objectgroup>
</map>
