<?xml version="1.0" encoding="UTF-8"?>
<map version="1.11" tiledversion="1.11.2" orientation="isometric" renderorder="right-down" width="28" height="28" tilewidth="192" tileheight="96" infinite="0" backgroundcolor="#000000" nextlayerid="29" nextobjectid="17">
 <editorsettings>
  <export target="../../../../game/mods/procgen_test/maps/iron_labyrinth/f3/start.txt" format="flare"/>
 </editorsettings>
 <properties>
  <property name="hero_pos" value="15,13"/>
  <property name="procgen_type" value="start"/>
  <property name="tileset" value="tilesetdefs/tileset_ruins.txt"/>
 </properties>
 <tileset firstgid="1" name="collision" tilewidth="192" tileheight="96" tilecount="15" columns="15">
  <image source="../tilesheets/tiled_collision.png" width="2880" height="96"/>
 </tileset>
 <tileset firstgid="16" name="set_rules" tilewidth="192" tileheight="96" tilecount="8" columns="2">
  <image source="../tilesheets/tiled_set_rules.png" width="384" height="384"/>
 </tileset>
 <tileset firstgid="24" name="ruins" tilewidth="192" tileheight="384" tilecount="352" columns="16">
  <image source="../tilesheets/ruins.png" width="3072" height="8448"/>
 </tileset>
 <tileset firstgid="376" name="ruins_door_left" tilewidth="192" tileheight="384" tilecount="2" columns="2">
  <tileoffset x="-48" y="-24"/>
  <image source="../tilesheets/ruins_door_left.png" width="384" height="384"/>
 </tileset>
 <tileset firstgid="378" name="ruins_door_right" tilewidth="192" tileheight="384" tilecount="2" columns="2">
  <tileoffset x="48" y="-24"/>
  <image source="../tilesheets/ruins_door_right.png" width="384" height="384"/>
 </tileset>
 <tileset firstgid="380" name="ruins_2x2" tilewidth="384" tileheight="192" tilecount="4" columns="4">
  <tileoffset x="0" y="48"/>
  <image source="../tilesheets/ruins_2x2.png" width="1536" height="192"/>
 </tileset>
 <tileset firstgid="384" name="boss_chest" tilewidth="192" tileheight="192" tilecount="4" columns="4">
  <image source="../tilesheets/boss_chest.png" width="768" height="192"/>
 </tileset>
 <layer id="9" name="background" width="28" height="28">
  <data encoding="csv">
0,0,0,0,0,0,0,0,0,0,0,0,0,0,0,0,0,0,0,0,0,0,0,0,0,0,0,0,
0,0,0,0,0,0,0,0,0,0,0,0,0,0,0,0,0,0,0,0,0,0,0,0,0,0,0,0,
0,0,0,0,0,0,0,0,0,0,0,0,0,0,0,0,0,0,0,0,0,0,0,0,0,0,0,0,
0,0,0,0,0,0,0,0,0,0,0,0,0,0,0,0,0,0,0,0,0,0,0,0,0,0,0,0,
0,0,0,0,24,25,26,27,24,25,26,27,24,25,26,27,24,25,26,27,24,25,26,27,0,0,0,0,
0,0,0,0,28,42,42,39,40,40,38,39,42,38,39,42,41,40,39,43,38,43,40,31,0,0,0,0,
0,0,0,0,24,42,26,27,24,25,26,27,24,25,26,27,24,25,26,27,24,25,41,27,0,0,0,0,
0,0,0,0,28,38,30,31,28,29,30,31,28,29,30,31,28,29,30,31,28,29,43,31,0,0,0,0,
0,0,0,0,24,38,26,27,122,124,124,124,124,124,124,124,124,124,124,124,24,25,38,27,0,0,0,0,
0,0,0,0,28,38,30,31,123,0,0,0,0,0,0,0,0,29,30,123,28,29,40,31,0,0,0,0,
0,0,0,0,24,42,26,27,123,0,0,0,0,0,0,0,0,25,26,123,24,25,43,27,0,0,0,0,
0,0,0,0,28,42,30,31,123,0,0,42,40,40,38,40,123,124,124,0,28,29,43,31,0,0,0,0,
0,0,0,0,24,41,26,27,123,0,0,40,24,25,26,43,123,0,0,0,24,25,42,27,0,0,0,0,
0,0,0,0,28,40,30,31,123,0,0,41,28,29,30,31,28,29,30,31,28,29,39,31,0,0,0,0,
0,0,0,0,24,38,26,27,123,0,0,42,24,25,26,27,24,25,26,27,24,25,43,27,0,0,0,0,
0,0,0,0,28,38,30,31,123,0,0,42,28,29,30,38,122,124,124,124,28,29,39,31,0,0,0,0,
0,0,0,0,24,40,26,27,123,0,0,39,24,25,43,41,123,0,0,0,24,25,43,27,0,0,0,0,
0,0,0,0,28,38,30,31,123,0,0,43,43,38,42,122,0,29,30,123,28,29,39,31,0,0,0,0,
0,0,0,0,24,38,26,27,123,0,0,124,124,124,124,0,0,25,26,123,24,25,41,27,0,0,0,0,
0,0,0,0,28,41,30,31,123,0,0,0,0,0,0,0,0,124,124,0,28,29,43,31,0,0,0,0,
0,0,0,0,24,43,26,27,24,25,26,27,24,25,26,27,24,25,26,27,24,25,41,27,0,0,0,0,
0,0,0,0,28,39,30,31,28,29,30,31,28,29,30,31,28,29,30,31,28,29,41,31,0,0,0,0,
0,0,0,0,24,39,42,39,38,38,39,43,39,41,41,41,39,39,40,41,43,41,39,27,0,0,0,0,
0,0,0,0,28,29,30,31,28,29,30,31,28,29,30,31,28,29,30,31,28,29,30,31,0,0,0,0,
0,0,0,0,0,0,0,0,0,0,0,0,0,0,0,0,0,0,0,0,0,0,0,0,0,0,0,0,
0,0,0,0,0,0,0,0,0,0,0,0,0,0,0,0,0,0,0,0,0,0,0,0,0,0,0,0,
0,0,0,0,0,0,0,0,0,0,0,0,0,0,0,0,0,0,0,0,0,0,0,0,0,0,0,0,
0,0,0,0,0,0,0,0,0,0,0,0,0,0,0,0,0,0,0,0,0,0,0,0,0,0,0,0
</data>
 </layer>
 <layer id="12" name="background_fringe" width="28" height="28">
  <data encoding="csv">
0,0,0,0,0,0,0,0,0,0,0,0,0,0,0,0,0,0,0,0,0,0,0,0,0,0,0,0,
0,0,0,0,0,0,0,0,0,0,0,0,0,0,0,0,0,0,0,0,0,0,0,0,0,0,0,0,
0,0,0,0,0,0,0,0,0,0,0,0,0,0,0,0,0,0,0,0,0,0,0,0,0,0,0,0,
0,0,0,0,0,0,0,0,0,0,0,0,0,0,0,0,0,0,0,0,0,0,0,0,0,0,0,0,
0,0,0,0,0,0,0,0,0,0,0,0,0,0,0,0,0,0,0,0,0,0,0,0,0,0,0,0,
0,0,0,0,0,0,0,0,0,0,0,0,0,0,0,0,0,0,0,0,0,0,0,0,0,0,0,0,
0,0,0,0,0,0,0,0,0,0,0,0,0,0,0,0,0,0,0,0,0,0,0,0,0,0,0,0,
0,0,0,0,0,0,0,60,49,49,49,49,49,49,49,49,49,49,49,49,61,0,0,0,0,0,0,0,
0,0,0,0,0,0,0,48,0,0,0,0,0,0,0,0,0,0,0,0,50,0,0,0,0,0,0,0,
0,0,0,0,0,0,0,48,0,0,0,0,0,0,0,0,0,58,59,0,50,0,0,0,0,0,0,0,
0,0,0,0,0,0,0,48,0,0,0,0,0,0,0,0,0,57,56,0,50,0,0,0,0,0,0,0,
0,0,0,0,0,0,0,48,0,0,0,58,51,51,51,59,0,0,0,0,50,0,0,0,0,0,0,0,
0,0,0,0,0,0,0,48,0,0,0,50,0,0,0,48,0,0,0,0,50,0,0,0,0,0,0,0,
0,0,0,0,0,0,0,48,0,0,0,50,0,0,0,63,51,51,51,51,62,0,0,0,0,0,0,0,
0,0,0,0,0,0,0,48,0,0,0,50,0,0,0,60,49,49,49,49,61,0,0,0,0,0,0,0,
0,0,0,0,0,0,0,48,0,0,0,50,0,0,0,48,0,0,0,0,50,0,0,0,0,0,0,0,
0,0,0,0,0,0,0,48,0,0,0,50,381,0,60,56,0,0,0,0,50,0,0,0,0,0,0,0,
0,0,0,0,0,0,0,48,0,0,0,57,49,49,56,0,0,58,59,0,50,0,0,0,0,0,0,0,
0,0,0,0,0,0,0,48,0,0,0,0,0,0,0,0,0,57,56,0,50,0,0,0,0,0,0,0,
0,0,0,0,0,0,0,48,0,0,0,0,0,0,0,0,0,0,0,0,50,0,0,0,0,0,0,0,
0,0,0,0,0,0,0,63,51,51,51,51,51,51,51,51,51,51,51,51,62,0,0,0,0,0,0,0,
0,0,0,0,0,0,0,0,0,0,0,0,0,0,0,0,0,0,0,0,0,0,0,0,0,0,0,0,
0,0,0,0,0,0,0,0,0,0,0,0,0,0,0,0,0,0,0,0,0,0,0,0,0,0,0,0,
0,0,0,0,0,0,0,0,0,0,0,0,0,0,0,0,0,0,0,0,0,0,0,0,0,0,0,0,
0,0,0,0,0,0,0,0,0,0,0,0,0,0,0,0,0,0,0,0,0,0,0,0,0,0,0,0,
0,0,0,0,0,0,0,0,0,0,0,0,0,0,0,0,0,0,0,0,0,0,0,0,0,0,0,0,
0,0,0,0,0,0,0,0,0,0,0,0,0,0,0,0,0,0,0,0,0,0,0,0,0,0,0,0,
0,0,0,0,0,0,0,0,0,0,0,0,0,0,0,0,0,0,0,0,0,0,0,0,0,0,0,0
</data>
 </layer>
 <layer id="10" name="object" width="28" height="28">
  <data encoding="csv">
153,154,155,156,153,154,155,156,153,154,155,156,153,154,155,156,153,154,155,156,153,154,155,156,153,154,155,156,
157,158,159,160,157,158,159,160,157,158,159,160,157,158,159,160,157,158,159,160,157,158,159,160,157,158,159,160,
153,154,165,166,162,165,166,162,161,163,163,166,163,166,165,162,165,165,162,164,162,162,163,166,165,164,155,156,
157,158,165,160,157,158,159,160,157,158,159,160,157,158,159,160,157,158,159,160,157,158,159,160,157,161,159,160,
153,154,165,156,148,169,250,169,175,214,169,200,169,239,216,237,200,171,177,236,169,175,236,149,153,163,155,156,
157,158,164,160,168,0,0,0,0,0,0,0,0,0,0,0,0,0,0,0,0,0,0,138,157,163,159,160,
153,154,162,156,170,0,0,0,0,0,0,0,0,0,0,0,0,0,0,0,0,0,0,138,153,166,155,156,
157,158,162,160,238,0,0,0,0,243,0,233,0,0,0,0,226,0,243,0,0,0,0,138,157,165,159,160,
153,154,162,156,199,0,0,0,0,0,0,0,0,0,0,0,0,0,0,0,0,0,0,138,153,161,155,156,
157,158,164,160,213,0,0,242,0,0,0,0,0,0,0,0,0,221,222,0,0,0,0,138,157,163,159,160,
153,154,161,156,176,0,0,0,0,0,0,0,0,0,0,0,0,220,219,0,0,0,0,138,153,164,155,156,
157,158,164,160,199,0,0,229,0,0,0,0,0,332,0,234,0,0,0,0,0,0,0,138,157,162,159,160,
153,154,165,156,174,0,0,0,0,0,0,0,0,331,0,0,0,0,0,0,0,0,0,138,153,164,155,156,
157,158,164,160,176,0,0,0,0,0,0,328,329,330,0,0,0,0,0,0,0,0,0,138,157,164,159,160,
153,154,162,156,170,0,0,0,0,0,0,224,0,0,0,0,0,0,0,0,0,0,0,138,153,166,155,156,
157,158,162,160,176,0,0,0,0,0,0,0,0,0,0,0,0,0,0,0,0,0,0,138,157,161,159,160,
153,154,161,156,199,0,0,231,0,0,0,0,0,0,0,0,0,0,0,0,0,0,0,138,153,166,155,156,
157,158,164,160,238,0,0,0,0,0,0,231,0,0,0,0,0,221,222,0,0,0,0,138,157,163,159,160,
153,154,163,156,176,0,0,242,0,0,0,0,0,0,0,0,0,220,219,0,0,0,0,138,153,164,155,156,
157,158,162,160,215,0,0,0,0,0,0,0,0,0,0,0,0,0,0,0,0,0,0,138,157,162,159,160,
153,154,166,156,136,0,0,0,0,241,0,186,0,0,0,0,230,0,241,0,0,0,0,138,153,166,155,156,
157,158,166,160,213,0,0,0,0,0,0,0,0,0,0,0,0,0,0,0,0,0,0,138,157,164,159,160,
153,154,166,156,240,0,0,0,0,0,0,0,0,0,0,0,0,0,0,0,0,0,0,138,153,164,155,156,
157,158,161,160,151,139,139,139,139,139,139,139,139,139,139,139,139,139,139,139,139,139,139,150,157,164,159,160,
153,154,162,156,153,154,155,156,153,154,155,156,153,154,155,156,153,154,155,156,153,154,155,156,153,164,155,156,
157,158,162,164,166,162,166,166,161,161,161,166,164,162,162,164,164,164,165,162,162,163,166,161,165,166,159,160,
153,154,155,156,153,154,155,156,153,154,155,156,153,154,155,156,153,154,155,156,153,154,155,156,153,154,155,156,
157,158,159,160,157,158,159,160,157,158,159,160,157,158,159,160,157,158,159,160,157,158,159,160,157,158,159,160
</data>
 </layer>
 <layer id="11" name="collision" width="28" height="28">
  <data encoding="csv">
3,3,3,3,3,3,3,3,3,3,3,3,3,3,3,3,3,3,3,3,3,3,3,3,3,3,3,3,
3,3,3,3,3,3,3,3,3,3,3,3,3,3,3,3,3,3,3,3,3,3,3,3,3,3,3,3,
3,3,3,3,3,3,3,3,3,3,3,3,3,3,3,3,3,3,3,3,3,3,3,3,3,3,3,3,
3,3,3,3,3,3,3,3,3,3,3,3,3,3,3,3,3,3,3,3,3,3,3,3,3,3,3,3,
3,3,3,3,1,1,1,1,1,1,1,1,1,1,1,1,1,1,1,1,1,1,1,1,3,3,3,3,
3,3,3,3,1,0,0,0,0,0,0,0,0,0,0,0,0,0,0,0,0,0,0,1,3,3,3,3,
3,3,3,3,1,0,0,0,0,0,0,0,0,0,0,0,0,0,0,0,0,0,0,1,3,3,3,3,
3,3,3,3,1,0,0,0,0,1,0,1,0,0,0,0,1,0,1,0,0,0,0,1,3,3,3,3,
3,3,3,3,1,0,0,0,2,2,2,2,2,2,2,2,2,2,2,2,0,0,0,1,3,3,3,3,
3,3,3,3,1,0,0,1,2,4,4,4,4,4,4,4,4,1,1,2,0,0,0,1,3,3,3,3,
3,3,3,3,1,0,0,0,2,4,2,2,2,2,2,2,2,1,1,2,0,0,0,1,3,3,3,3,
3,3,3,3,1,0,0,1,2,4,2,1,1,1,0,1,2,4,4,2,0,0,0,1,3,3,3,3,
3,3,3,3,1,0,0,0,2,4,2,1,1,0,0,0,2,2,2,2,0,0,0,1,3,3,3,3,
3,3,3,3,1,0,0,0,2,4,2,1,1,1,0,0,0,0,0,0,0,0,0,1,3,3,3,3,
3,3,3,3,1,0,0,0,2,4,2,1,0,0,0,0,0,0,0,0,0,0,0,1,3,3,3,3,
3,3,3,3,1,0,0,0,2,4,2,0,0,0,0,0,2,2,2,2,0,0,0,1,3,3,3,3,
3,3,3,3,1,0,0,1,2,4,2,0,0,0,0,0,2,4,4,2,0,0,0,1,3,3,3,3,
3,3,3,3,1,0,0,0,2,4,2,1,0,0,0,2,2,1,1,2,0,0,0,1,3,3,3,3,
3,3,3,3,1,0,0,1,2,4,2,2,2,2,2,2,4,1,1,2,0,0,0,1,3,3,3,3,
3,3,3,3,1,0,0,0,2,2,2,2,2,2,2,2,2,2,2,2,0,0,0,1,3,3,3,3,
3,3,3,3,1,0,0,0,0,1,0,1,0,0,0,0,1,0,1,0,0,0,0,1,3,3,3,3,
3,3,3,3,1,0,0,0,0,0,0,0,0,0,0,0,0,0,0,0,0,0,0,1,3,3,3,3,
3,3,3,3,1,0,0,0,0,0,0,0,0,0,0,0,0,0,0,0,0,0,0,1,3,3,3,3,
3,3,3,3,1,1,1,1,1,1,1,1,1,1,1,1,1,1,1,1,1,1,1,1,3,3,3,3,
3,3,3,3,3,3,3,3,3,3,3,3,3,3,3,3,3,3,3,3,3,3,3,3,3,3,3,3,
3,3,3,3,3,3,3,3,3,3,3,3,3,3,3,3,3,3,3,3,3,3,3,3,3,3,3,3,
3,3,3,3,3,3,3,3,3,3,3,3,3,3,3,3,3,3,3,3,3,3,3,3,3,3,3,3,
3,3,3,3,3,3,3,3,3,3,3,3,3,3,3,3,3,3,3,3,3,3,3,3,3,3,3,3
</data>
 </layer>
 <objectgroup id="22" name="event">
  <object id="5" name="Stairs Up" type="event" x="1056" y="1056" width="288" height="288">
   <properties>
    <property name="activate" value="on_trigger"/>
    <property name="hotspot" value="location"/>
    <property name="intermap" value="maps/iron_labyrinth_f2.txt,-1,-1,stairs_down"/>
    <property name="set_status" value="emp_il_f2"/>
    <property name="soundfx" value="soundfx/environment/stairs.ogg,0,0"/>
    <property name="tooltip" value="Iron Labyrinth: Level 2"/>
    <property name="unset_status" value="emp_il_f3"/>
   </properties>
  </object>
  <object id="10" name="Reset Floor" type="event" x="0" y="0" width="96" height="96">
   <properties>
    <property name="activate" value="on_load"/>
    <property name="unset_status" value="emp_il_f3_reset"/>
   </properties>
  </object>
  <object id="13" name="Activate Tele" type="event" x="96" y="0" width="96" height="96">
   <properties>
    <property name="activate" value="on_load"/>
    <property name="set_status" value="emp_il_f3_tele"/>
   </properties>
  </object>
  <object id="12" name="Spawn point: Entrance tele" type="event" x="1440" y="1344" width="96" height="96">
   <properties>
    <property name="intermap_id" value="entrance_tele"/>
   </properties>
  </object>
  <object id="14" name="Entrance Tele" type="event" x="1152" y="1440" width="192" height="192">
   <properties>
    <property name="activate" value="on_trigger"/>
    <property name="hotspot" value="location"/>
    <property name="intermap" value="maps/perdition_harbor_cave.txt,-1,-1,obelisk"/>
    <property name="repeat" value="false"/>
    <property name="soundfx" value="soundfx/environment/teleporter.ogg,0,0"/>
    <property name="tooltip" value="Perdition Harbor Cave"/>
   </properties>
  </object>
 </objectgroup>
</map>
