<?xml version="1.0" encoding="UTF-8"?>
<map version="1.11" tiledversion="1.11.2" orientation="isometric" renderorder="right-down" width="28" height="28" tilewidth="192" tileheight="96" infinite="0" backgroundcolor="#000000" nextlayerid="33" nextobjectid="33">
 <editorsettings>
  <export target="../../../../game/mods/procgen_test/maps/iron_labyrinth/door_we1.txt" format="flare"/>
 </editorsettings>
 <properties>
  <property name="hero_pos" value="8,12"/>
  <property name="procgen_type" value="door_west_east"/>
  <property name="tileset" value="tilesetdefs/tileset_ruins.txt"/>
 </properties>
 <tileset firstgid="1" name="collision" tilewidth="192" tileheight="96" tilecount="15" columns="15">
  <image source="../tilesheets/tiled_collision.png" width="2880" height="96"/>
 </tileset>
 <tileset firstgid="16" name="set_rules" tilewidth="192" tileheight="96" tilecount="8" columns="2">
  <image source="../tilesheets/tiled_set_rules.png" width="384" height="384"/>
 </tileset>
 <tileset firstgid="24" name="ruins" tilewidth="192" tileheight="384" tilecount="352" columns="16">
  <image source="../tilesheets/ruins.png" width="3072" height="8448"/>
 </tileset>
 <tileset firstgid="376" name="ruins_door_left" tilewidth="192" tileheight="384" tilecount="2" columns="2">
  <tileoffset x="-48" y="-24"/>
  <image source="../tilesheets/ruins_door_left.png" width="384" height="384"/>
 </tileset>
 <tileset firstgid="378" name="ruins_door_right" tilewidth="192" tileheight="384" tilecount="2" columns="2">
  <tileoffset x="48" y="-24"/>
  <image source="../tilesheets/ruins_door_right.png" width="384" height="384"/>
 </tileset>
 <tileset firstgid="380" name="ruins_2x2" tilewidth="384" tileheight="192" tilecount="4" columns="4">
  <tileoffset x="0" y="48"/>
  <image source="../tilesheets/ruins_2x2.png" width="1536" height="192"/>
 </tileset>
 <tileset firstgid="384" name="boss_chest" tilewidth="192" tileheight="192" tilecount="4" columns="4">
  <image source="../tilesheets/boss_chest.png" width="768" height="192"/>
 </tileset>
 <layer id="9" name="background" width="28" height="28">
  <data encoding="csv">
0,0,0,0,0,0,0,0,0,0,0,0,0,0,0,0,0,0,0,0,0,0,0,0,0,0,0,0,
0,0,0,0,0,0,0,0,0,0,0,0,0,0,0,0,0,0,0,0,0,0,0,0,0,0,0,0,
0,0,0,0,0,0,0,0,0,0,0,0,0,0,0,0,0,0,0,0,0,0,0,0,0,0,0,0,
0,0,0,0,0,0,0,0,0,0,0,0,0,0,0,0,0,0,0,0,0,0,0,0,0,0,0,0,
0,0,0,0,0,0,0,0,0,0,0,0,0,0,0,0,0,0,0,0,0,0,0,0,0,0,0,0,
0,0,0,0,0,0,0,0,0,0,0,0,0,0,0,0,0,0,0,0,0,0,0,0,0,0,0,0,
0,0,0,0,0,0,0,0,0,0,0,0,0,0,0,0,0,0,0,0,0,0,0,0,0,0,0,0,
0,0,0,0,0,0,0,0,0,0,0,0,0,0,0,0,0,0,0,0,0,0,0,0,0,0,0,0,
0,0,0,0,24,25,26,27,24,0,0,0,0,0,0,0,0,0,0,27,24,25,26,27,0,0,0,0,
0,0,0,0,28,43,42,39,28,0,0,0,0,0,0,0,0,0,0,31,40,39,39,31,0,0,0,0,
0,0,0,0,24,42,26,43,24,25,26,27,24,0,0,27,24,25,26,27,38,25,41,27,0,0,0,0,
0,0,0,0,28,43,30,38,38,39,38,39,28,29,30,31,38,39,41,38,40,29,41,31,0,0,0,0,
0,0,0,0,24,43,26,27,24,25,26,39,41,38,41,43,41,25,26,27,24,25,38,27,0,0,0,0,
0,0,0,0,28,41,30,31,28,29,30,31,28,29,30,31,28,29,30,31,28,29,39,31,0,0,0,0,
0,0,0,0,24,43,26,27,24,25,26,27,24,25,26,27,24,25,26,27,24,25,43,27,0,0,0,0,
0,0,0,0,28,40,30,31,28,29,30,38,41,38,39,41,43,29,30,31,28,29,40,31,0,0,0,0,
0,0,0,0,24,38,26,41,41,43,39,43,24,25,26,27,40,43,38,41,42,25,40,27,0,0,0,0,
0,0,0,0,28,42,30,38,28,29,30,31,28,0,0,31,28,29,30,31,40,29,42,31,0,0,0,0,
0,0,0,0,24,43,40,42,24,0,0,0,0,0,0,0,0,0,0,27,39,41,41,27,0,0,0,0,
0,0,0,0,28,29,30,31,28,0,0,0,0,0,0,0,0,0,0,31,28,29,30,31,0,0,0,0,
0,0,0,0,0,0,0,0,0,0,0,0,0,0,0,0,0,0,0,0,0,0,0,0,0,0,0,0,
0,0,0,0,0,0,0,0,0,0,0,0,0,0,0,0,0,0,0,0,0,0,0,0,0,0,0,0,
0,0,0,0,0,0,0,0,0,0,0,0,0,0,0,0,0,0,0,0,0,0,0,0,0,0,0,0,
0,0,0,0,0,0,0,0,0,0,0,0,0,0,0,0,0,0,0,0,0,0,0,0,0,0,0,0,
0,0,0,0,0,0,0,0,0,0,0,0,0,0,0,0,0,0,0,0,0,0,0,0,0,0,0,0,
0,0,0,0,0,0,0,0,0,0,0,0,0,0,0,0,0,0,0,0,0,0,0,0,0,0,0,0,
0,0,0,0,0,0,0,0,0,0,0,0,0,0,0,0,0,0,0,0,0,0,0,0,0,0,0,0,
0,0,0,0,0,0,0,0,0,0,0,0,0,0,0,0,0,0,0,0,0,0,0,0,0,0,0,0
</data>
 </layer>
 <layer id="12" name="background_fringe" width="28" height="28">
  <data encoding="csv">
0,0,0,0,0,0,0,0,0,0,0,0,0,0,0,0,0,0,0,0,0,0,0,0,0,0,0,0,
0,0,0,0,0,0,0,0,0,0,0,0,0,0,0,0,0,0,0,0,0,0,0,0,0,0,0,0,
0,0,0,0,0,0,0,0,0,0,0,0,0,0,0,0,0,0,0,0,0,0,0,0,0,0,0,0,
0,0,0,0,0,0,0,0,0,0,0,0,0,0,0,0,0,0,0,0,0,0,0,0,0,0,0,0,
0,0,0,0,0,0,0,0,0,0,0,0,0,0,0,0,0,0,0,0,0,0,0,0,0,0,0,0,
0,0,0,0,0,0,0,0,0,0,0,0,0,0,0,0,0,0,0,0,0,0,0,0,0,0,0,0,
0,0,0,0,0,0,0,0,0,0,0,0,0,0,0,0,0,0,0,0,0,0,0,0,0,0,0,0,
0,0,0,0,0,0,0,0,0,0,0,0,0,0,0,0,0,0,0,0,0,0,0,0,0,0,0,0,
0,0,0,0,0,0,0,0,0,0,0,0,0,0,0,0,0,0,0,0,0,0,0,0,0,0,0,0,
0,0,0,0,0,0,0,0,0,0,0,0,0,0,0,0,0,0,0,0,0,0,0,0,0,0,0,0,
0,0,0,0,0,0,0,0,0,0,0,0,0,0,0,0,0,0,0,0,0,0,0,0,0,0,0,0,
0,0,0,0,0,0,0,0,0,0,0,0,0,0,0,0,0,0,0,0,0,0,0,0,0,0,0,0,
0,0,0,0,0,0,0,0,0,0,0,0,0,0,0,0,0,0,0,0,0,0,0,0,0,0,0,0,
0,0,0,0,0,0,0,0,0,0,0,0,0,0,0,0,0,0,0,0,0,0,0,0,0,0,0,0,
0,0,0,0,0,0,0,0,0,0,0,0,0,0,0,0,0,0,0,0,0,0,0,0,0,0,0,0,
0,0,0,0,0,0,0,0,0,0,0,0,0,0,0,0,0,0,0,0,0,0,0,0,0,0,0,0,
0,0,0,0,0,0,0,0,0,0,0,0,0,0,0,0,0,0,0,0,0,0,0,0,0,0,0,0,
0,0,0,0,0,0,0,0,0,0,0,0,0,0,0,0,0,0,0,0,0,0,0,0,0,0,0,0,
0,0,0,0,0,0,0,0,0,0,0,0,0,0,0,0,0,0,0,0,0,0,0,0,0,0,0,0,
0,0,0,0,0,0,0,0,0,0,0,0,0,0,0,0,0,0,0,0,0,0,0,0,0,0,0,0,
0,0,0,0,0,0,0,0,0,0,0,0,0,0,0,0,0,0,0,0,0,0,0,0,0,0,0,0,
0,0,0,0,0,0,0,0,0,0,0,0,0,0,0,0,0,0,0,0,0,0,0,0,0,0,0,0,
0,0,0,0,0,0,0,0,0,0,0,0,0,0,0,0,0,0,0,0,0,0,0,0,0,0,0,0,
0,0,0,0,0,0,0,0,0,0,0,0,0,0,0,0,0,0,0,0,0,0,0,0,0,0,0,0,
0,0,0,0,0,0,0,0,0,0,0,0,0,0,0,0,0,0,0,0,0,0,0,0,0,0,0,0,
0,0,0,0,0,0,0,0,0,0,0,0,0,0,0,0,0,0,0,0,0,0,0,0,0,0,0,0,
0,0,0,0,0,0,0,0,0,0,0,0,0,0,0,0,0,0,0,0,0,0,0,0,0,0,0,0,
0,0,0,0,0,0,0,0,0,0,0,0,0,0,0,0,0,0,0,0,0,0,0,0,0,0,0,0
</data>
 </layer>
 <layer id="10" name="object" width="28" height="28">
  <data encoding="csv">
153,154,155,156,153,154,155,156,153,154,155,156,153,154,155,156,153,154,155,156,153,154,155,156,153,154,155,156,
157,158,159,160,157,158,159,160,157,158,159,160,157,158,159,160,157,158,159,160,157,158,159,160,157,158,159,160,
153,154,155,156,153,154,155,156,153,154,155,156,153,154,155,156,153,154,155,156,153,154,155,156,153,154,155,156,
157,158,159,160,157,158,159,160,157,158,159,160,157,158,159,160,157,158,159,160,157,158,159,160,157,158,159,160,
153,154,155,156,153,154,155,156,153,154,155,156,153,154,155,156,153,154,155,156,153,154,155,156,153,154,155,156,
157,158,159,160,157,158,159,160,157,158,159,160,157,158,159,160,157,158,159,160,157,158,159,160,157,158,159,160,
153,154,164,164,164,166,162,164,164,161,166,156,153,154,155,156,153,164,162,166,161,163,161,162,164,161,155,156,
157,158,165,160,157,158,159,160,157,158,166,160,157,158,159,160,157,163,159,160,157,158,159,160,157,161,159,160,
153,154,163,156,148,171,214,141,149,154,165,166,166,165,166,161,166,161,155,148,175,214,169,149,153,165,155,156,
157,158,163,160,136,0,0,0,138,158,159,160,157,158,159,160,157,158,159,235,0,0,0,138,157,163,159,160,
153,154,161,156,240,0,296,0,145,239,169,216,149,154,155,148,177,237,171,144,0,296,0,138,153,163,155,156,
157,158,161,160,170,0,0,0,0,0,0,0,220,200,177,219,0,0,0,0,0,0,0,138,157,166,159,160,
153,154,163,156,136,0,0,0,0,0,0,0,0,0,369,0,0,0,0,0,0,0,0,138,153,162,155,156,
157,158,166,160,176,0,0,0,0,0,0,0,0,0,377,0,0,0,0,0,0,0,0,138,157,166,159,160,
153,154,164,156,235,0,0,0,0,0,0,0,0,0,376,0,0,0,0,0,0,0,0,138,153,165,155,156,
157,158,161,160,178,0,0,0,0,0,0,0,0,0,371,0,0,0,0,0,0,0,0,138,157,165,159,160,
153,154,161,156,168,0,0,0,0,0,0,0,221,139,139,222,0,0,0,0,0,0,0,138,153,161,155,156,
157,158,166,160,176,0,296,0,146,139,139,139,150,158,159,151,139,139,139,147,0,296,0,138,157,163,159,160,
153,154,166,156,213,0,0,0,138,154,155,156,153,154,155,156,153,154,155,136,0,0,0,138,153,165,155,156,
157,158,164,160,151,139,139,139,150,158,166,161,163,161,163,166,161,161,159,151,139,139,139,150,157,164,159,160,
153,154,164,156,153,154,155,156,153,154,163,156,153,154,155,156,153,166,155,156,153,154,155,156,153,163,155,156,
157,158,166,161,162,164,164,164,165,164,165,160,157,158,159,160,157,165,162,161,166,163,164,162,161,161,159,160,
153,154,155,156,153,154,155,156,153,154,155,156,153,154,155,156,153,154,155,156,153,154,155,156,153,154,155,156,
157,158,159,160,157,158,159,160,157,158,159,160,157,158,159,160,157,158,159,160,157,158,159,160,157,158,159,160,
153,154,155,156,153,154,155,156,153,154,155,156,153,154,155,156,153,154,155,156,153,154,155,156,153,154,155,156,
157,158,159,160,157,158,159,160,157,158,159,160,157,158,159,160,157,158,159,160,157,158,159,160,157,158,159,160,
153,154,155,156,153,154,155,156,153,154,155,156,153,154,155,156,153,154,155,156,153,154,155,156,153,154,155,156,
157,158,159,160,157,158,159,160,157,158,159,160,157,158,159,160,157,158,159,160,157,158,159,160,157,158,159,160
</data>
 </layer>
 <layer id="11" name="collision" width="28" height="28">
  <data encoding="csv">
3,3,3,3,3,3,3,3,3,3,3,3,3,3,3,3,3,3,3,3,3,3,3,3,3,3,3,3,
3,3,3,3,3,3,3,3,3,3,3,3,3,3,3,3,3,3,3,3,3,3,3,3,3,3,3,3,
3,3,3,3,3,3,3,3,3,3,3,3,3,3,3,3,3,3,3,3,3,3,3,3,3,3,3,3,
3,3,3,3,3,3,3,3,3,3,3,3,3,3,3,3,3,3,3,3,3,3,3,3,3,3,3,3,
3,3,3,3,3,3,3,3,3,3,3,3,3,3,3,3,3,3,3,3,3,3,3,3,3,3,3,3,
3,3,3,3,3,3,3,3,3,3,3,3,3,3,3,3,3,3,3,3,3,3,3,3,3,3,3,3,
3,3,3,3,3,3,3,3,3,3,3,3,3,3,3,3,3,3,3,3,3,3,3,3,3,3,3,3,
3,3,3,3,3,3,3,3,3,3,3,3,3,3,3,3,3,3,3,3,3,3,3,3,3,3,3,3,
3,3,3,3,1,1,1,1,1,3,3,3,3,3,3,3,3,3,3,1,1,1,1,1,3,3,3,3,
3,3,3,3,1,0,0,0,1,3,3,3,3,3,3,3,3,3,3,1,0,0,0,1,3,3,3,3,
3,3,3,3,1,0,2,0,1,1,1,1,1,3,3,1,1,1,1,1,0,2,0,1,3,3,3,3,
3,3,3,3,1,0,0,0,0,0,0,0,1,1,1,1,0,0,0,0,0,0,0,1,3,3,3,3,
3,3,3,3,1,0,0,0,0,0,0,0,0,1,1,0,0,0,0,0,0,0,0,1,3,3,3,3,
3,3,3,3,1,0,0,0,0,0,0,0,0,1,1,0,0,0,0,0,0,0,0,1,3,3,3,3,
3,3,3,3,1,0,0,0,0,0,0,0,0,1,1,0,0,0,0,0,0,0,0,1,3,3,3,3,
3,3,3,3,1,0,0,0,0,0,0,0,0,1,1,0,0,0,0,0,0,0,0,1,3,3,3,3,
3,3,3,3,1,0,0,0,0,0,0,0,1,1,1,1,0,0,0,0,0,0,0,1,3,3,3,3,
3,3,3,3,1,0,2,0,1,1,1,1,1,3,3,1,1,1,1,1,0,2,0,1,3,3,3,3,
3,3,3,3,1,0,0,0,1,3,3,3,3,3,3,3,3,3,3,1,0,0,0,1,3,3,3,3,
3,3,3,3,1,1,1,1,1,3,3,3,3,3,3,3,3,3,3,1,1,1,1,1,3,3,3,3,
3,3,3,3,3,3,3,3,3,3,3,3,3,3,3,3,3,3,3,3,3,3,3,3,3,3,3,3,
3,3,3,3,3,3,3,3,3,3,3,3,3,3,3,3,3,3,3,3,3,3,3,3,3,3,3,3,
3,3,3,3,3,3,3,3,3,3,3,3,3,3,3,3,3,3,3,3,3,3,3,3,3,3,3,3,
3,3,3,3,3,3,3,3,3,3,3,3,3,3,3,3,3,3,3,3,3,3,3,3,3,3,3,3,
3,3,3,3,3,3,3,3,3,3,3,3,3,3,3,3,3,3,3,3,3,3,3,3,3,3,3,3,
3,3,3,3,3,3,3,3,3,3,3,3,3,3,3,3,3,3,3,3,3,3,3,3,3,3,3,3,
3,3,3,3,3,3,3,3,3,3,3,3,3,3,3,3,3,3,3,3,3,3,3,3,3,3,3,3,
3,3,3,3,3,3,3,3,3,3,3,3,3,3,3,3,3,3,3,3,3,3,3,3,3,3,3,3
</data>
 </layer>
 <objectgroup id="23" name="event">
  <object id="6" name="Locked Door (floor 1, lvl 1)" type="event" x="1248" y="1248" width="192" height="192">
   <properties>
    <property name="activate" value="on_trigger"/>
    <property name="hotspot" value="location"/>
    <property name="msg" value="This door needs a key to be opened."/>
    <property name="procgen_door_level" value="1"/>
    <property name="requires_not_item" value="1105"/>
    <property name="requires_not_status" value="emp_il_f1_door1"/>
    <property name="requires_status" value="emp_il_f1"/>
    <property name="tooltip" value="Locked Door"/>
   </properties>
  </object>
  <object id="9" name="Locked Door (floor 1, lvl 2)" type="event" x="1248" y="1248" width="192" height="192">
   <properties>
    <property name="activate" value="on_trigger"/>
    <property name="hotspot" value="location"/>
    <property name="msg" value="This door needs a key to be opened."/>
    <property name="procgen_door_level" value="2"/>
    <property name="requires_not_item" value="1105"/>
    <property name="requires_not_status" value="emp_il_f1_door2"/>
    <property name="requires_status" value="emp_il_f1,emp_il_f1_door1"/>
    <property name="tooltip" value="Locked Door"/>
   </properties>
  </object>
  <object id="8" name="Unlock Door (floor 1, lvl 1)" type="event" x="1248" y="1248" width="192" height="192">
   <properties>
    <property name="activate" value="on_trigger"/>
    <property name="hotspot" value="location"/>
    <property name="mapmod" value="object,14,12,361;object,14,15,367;object,14,13,0;object,14,14,0;collision,13,13,0;collision,13,14,0;collision,14,13,0;collision,14,14,0"/>
    <property name="procgen_door_level" value="1"/>
    <property name="remove_item" value="1105:1"/>
    <property name="requires_item" value="1105"/>
    <property name="requires_not_status" value="emp_il_f1_door1"/>
    <property name="requires_status" value="emp_il_f1"/>
    <property name="set_status" value="emp_il_f1_door1"/>
    <property name="soundfx" value="soundfx/door_open.ogg"/>
    <property name="tooltip" value="Locked Door"/>
   </properties>
  </object>
  <object id="7" name="Unlock Door (floor 1, lvl 2)" type="event" x="1248" y="1248" width="192" height="192">
   <properties>
    <property name="activate" value="on_trigger"/>
    <property name="hotspot" value="location"/>
    <property name="mapmod" value="object,14,12,361;object,14,15,367;object,14,13,0;object,14,14,0;collision,13,13,0;collision,13,14,0;collision,14,13,0;collision,14,14,0"/>
    <property name="procgen_door_level" value="2"/>
    <property name="remove_item" value="1105:1"/>
    <property name="requires_item" value="1105"/>
    <property name="requires_not_status" value="emp_il_f1_door2"/>
    <property name="requires_status" value="emp_il_f1,emp_il_f1_door1"/>
    <property name="set_status" value="emp_il_f1_door2"/>
    <property name="soundfx" value="soundfx/door_open.ogg"/>
    <property name="tooltip" value="Locked Door"/>
   </properties>
  </object>
  <object id="10" name="Unlock Door (floor 1, lvl 1, on_load)" type="event" x="1056" y="768" width="96" height="96">
   <properties>
    <property name="activate" value="on_load"/>
    <property name="mapmod" value="object,14,12,361;object,14,15,367;object,14,13,0;object,14,14,0;collision,13,13,0;collision,13,14,0;collision,14,13,0;collision,14,14,0"/>
    <property name="procgen_door_level" value="1"/>
    <property name="requires_status" value="emp_il_f1,emp_il_f1_door1"/>
   </properties>
  </object>
  <object id="11" name="Unlock Door (floor 1, lvl 2, on_load)" type="event" x="1152" y="768" width="96" height="96">
   <properties>
    <property name="activate" value="on_load"/>
    <property name="mapmod" value="object,14,12,361;object,14,15,367;object,14,13,0;object,14,14,0;collision,13,13,0;collision,13,14,0;collision,14,13,0;collision,14,14,0"/>
    <property name="procgen_door_level" value="2"/>
    <property name="requires_status" value="emp_il_f1,emp_il_f1_door2"/>
   </properties>
  </object>
  <object id="24" name="Locked Door (floor 2, lvl 1)" type="event" x="1248" y="1248" width="192" height="192">
   <properties>
    <property name="activate" value="on_trigger"/>
    <property name="hotspot" value="location"/>
    <property name="msg" value="This door needs a key to be opened."/>
    <property name="procgen_door_level" value="1"/>
    <property name="requires_not_item" value="1105"/>
    <property name="requires_not_status" value="emp_il_f2_door1"/>
    <property name="requires_status" value="emp_il_f2"/>
    <property name="tooltip" value="Locked Door"/>
   </properties>
  </object>
  <object id="23" name="Locked Door (floor 2, lvl 2)" type="event" x="1248" y="1248" width="192" height="192">
   <properties>
    <property name="activate" value="on_trigger"/>
    <property name="hotspot" value="location"/>
    <property name="msg" value="This door needs a key to be opened."/>
    <property name="procgen_door_level" value="2"/>
    <property name="requires_not_item" value="1105"/>
    <property name="requires_not_status" value="emp_il_f2_door2"/>
    <property name="requires_status" value="emp_il_f2,emp_il_f2_door1"/>
    <property name="tooltip" value="Locked Door"/>
   </properties>
  </object>
  <object id="22" name="Unlock Door (floor 2, lvl 1)" type="event" x="1248" y="1248" width="192" height="192">
   <properties>
    <property name="activate" value="on_trigger"/>
    <property name="hotspot" value="location"/>
    <property name="mapmod" value="object,14,12,361;object,14,15,367;object,14,13,0;object,14,14,0;collision,13,13,0;collision,13,14,0;collision,14,13,0;collision,14,14,0"/>
    <property name="procgen_door_level" value="1"/>
    <property name="remove_item" value="1105:1"/>
    <property name="requires_item" value="1105"/>
    <property name="requires_not_status" value="emp_il_f2_door1"/>
    <property name="requires_status" value="emp_il_f2"/>
    <property name="set_status" value="emp_il_f2_door1"/>
    <property name="soundfx" value="soundfx/door_open.ogg"/>
    <property name="tooltip" value="Locked Door"/>
   </properties>
  </object>
  <object id="21" name="Unlock Door (floor 2, lvl 2)" type="event" x="1248" y="1248" width="192" height="192">
   <properties>
    <property name="activate" value="on_trigger"/>
    <property name="hotspot" value="location"/>
    <property name="mapmod" value="object,14,12,361;object,14,15,367;object,14,13,0;object,14,14,0;collision,13,13,0;collision,13,14,0;collision,14,13,0;collision,14,14,0"/>
    <property name="procgen_door_level" value="2"/>
    <property name="remove_item" value="1105:1"/>
    <property name="requires_item" value="1105"/>
    <property name="requires_not_status" value="emp_il_f2_door2"/>
    <property name="requires_status" value="emp_il_f2,emp_il_f2_door1"/>
    <property name="set_status" value="emp_il_f2_door2"/>
    <property name="soundfx" value="soundfx/door_open.ogg"/>
    <property name="tooltip" value="Locked Door"/>
   </properties>
  </object>
  <object id="20" name="Unlock Door (floor 2, lvl 1, on_load)" type="event" x="1056" y="768" width="96" height="96">
   <properties>
    <property name="activate" value="on_load"/>
    <property name="mapmod" value="object,14,12,361;object,14,15,367;object,14,13,0;object,14,14,0;collision,13,13,0;collision,13,14,0;collision,14,13,0;collision,14,14,0"/>
    <property name="procgen_door_level" value="1"/>
    <property name="requires_status" value="emp_il_f2,emp_il_f2_door1"/>
   </properties>
  </object>
  <object id="19" name="Unlock Door (floor 2, lvl 2, on_load)" type="event" x="1152" y="768" width="96" height="96">
   <properties>
    <property name="activate" value="on_load"/>
    <property name="mapmod" value="object,14,12,361;object,14,15,367;object,14,13,0;object,14,14,0;collision,13,13,0;collision,13,14,0;collision,14,13,0;collision,14,14,0"/>
    <property name="procgen_door_level" value="2"/>
    <property name="requires_status" value="emp_il_f2,emp_il_f2_door2"/>
   </properties>
  </object>
  <object id="30" name="Locked Door (floor 3, lvl 1)" type="event" x="1248" y="1248" width="192" height="192">
   <properties>
    <property name="activate" value="on_trigger"/>
    <property name="hotspot" value="location"/>
    <property name="msg" value="This door needs a key to be opened."/>
    <property name="procgen_door_level" value="1"/>
    <property name="requires_not_item" value="1105"/>
    <property name="requires_not_status" value="emp_il_f3_door1"/>
    <property name="requires_status" value="emp_il_f3"/>
    <property name="tooltip" value="Locked Door"/>
   </properties>
  </object>
  <object id="29" name="Locked Door (floor 3, lvl 2)" type="event" x="1248" y="1248" width="192" height="192">
   <properties>
    <property name="activate" value="on_trigger"/>
    <property name="hotspot" value="location"/>
    <property name="msg" value="This door needs a key to be opened."/>
    <property name="procgen_door_level" value="2"/>
    <property name="requires_not_item" value="1105"/>
    <property name="requires_not_status" value="emp_il_f3_door2"/>
    <property name="requires_status" value="emp_il_f3,emp_il_f3_door1"/>
    <property name="tooltip" value="Locked Door"/>
   </properties>
  </object>
  <object id="28" name="Unlock Door (floor 3, lvl 1)" type="event" x="1248" y="1248" width="192" height="192">
   <properties>
    <property name="activate" value="on_trigger"/>
    <property name="hotspot" value="location"/>
    <property name="mapmod" value="object,14,12,361;object,14,15,367;object,14,13,0;object,14,14,0;collision,13,13,0;collision,13,14,0;collision,14,13,0;collision,14,14,0"/>
    <property name="procgen_door_level" value="1"/>
    <property name="remove_item" value="1105:1"/>
    <property name="requires_item" value="1105"/>
    <property name="requires_not_status" value="emp_il_f3_door1"/>
    <property name="requires_status" value="emp_il_f3"/>
    <property name="set_status" value="emp_il_f3_door1"/>
    <property name="soundfx" value="soundfx/door_open.ogg"/>
    <property name="tooltip" value="Locked Door"/>
   </properties>
  </object>
  <object id="27" name="Unlock Door (floor 3, lvl 2)" type="event" x="1248" y="1248" width="192" height="192">
   <properties>
    <property name="activate" value="on_trigger"/>
    <property name="hotspot" value="location"/>
    <property name="mapmod" value="object,14,12,361;object,14,15,367;object,14,13,0;object,14,14,0;collision,13,13,0;collision,13,14,0;collision,14,13,0;collision,14,14,0"/>
    <property name="procgen_door_level" value="2"/>
    <property name="remove_item" value="1105:1"/>
    <property name="requires_item" value="1105"/>
    <property name="requires_not_status" value="emp_il_f3_door2"/>
    <property name="requires_status" value="emp_il_f3,emp_il_f3_door1"/>
    <property name="set_status" value="emp_il_f3_door2"/>
    <property name="soundfx" value="soundfx/door_open.ogg"/>
    <property name="tooltip" value="Locked Door"/>
   </properties>
  </object>
  <object id="26" name="Unlock Door (floor 3, lvl 1, on_load)" type="event" x="1056" y="768" width="96" height="96">
   <properties>
    <property name="activate" value="on_load"/>
    <property name="mapmod" value="object,14,12,361;object,14,15,367;object,14,13,0;object,14,14,0;collision,13,13,0;collision,13,14,0;collision,14,13,0;collision,14,14,0"/>
    <property name="procgen_door_level" value="1"/>
    <property name="requires_status" value="emp_il_f3,emp_il_f3_door1"/>
   </properties>
  </object>
  <object id="25" name="Unlock Door (floor 3, lvl 2, on_load)" type="event" x="1152" y="768" width="96" height="96">
   <properties>
    <property name="activate" value="on_load"/>
    <property name="mapmod" value="object,14,12,361;object,14,15,367;object,14,13,0;object,14,14,0;collision,13,13,0;collision,13,14,0;collision,14,13,0;collision,14,14,0"/>
    <property name="procgen_door_level" value="2"/>
    <property name="requires_status" value="emp_il_f3,emp_il_f3_door2"/>
   </properties>
  </object>
  <object id="31" name="brazier sound effect" type="event" x="576" y="1248" width="96" height="96">
   <properties>
    <property name="activate" value="on_load"/>
    <property name="soundfx" value="soundfx/environment/open_fire_loop.ogg"/>
   </properties>
  </object>
  <object id="32" name="brazier sound effect" type="event" x="2016" y="1248" width="96" height="96">
   <properties>
    <property name="activate" value="on_load"/>
    <property name="soundfx" value="soundfx/environment/open_fire_loop.ogg"/>
   </properties>
  </object>
 </objectgroup>
 <objectgroup id="32" name="enemy">
  <object id="12" type="enemy" x="480" y="864" width="1728" height="960">
   <properties>
    <property name="category" value="il_common"/>
    <property name="number" value="3,5"/>
    <property name="spawn_level" value="hero_level,1"/>
   </properties>
  </object>
 </objectgroup>
</map>
