<?xml version="1.0" encoding="UTF-8"?>
<map version="1.11" tiledversion="1.11.2" orientation="isometric" renderorder="right-down" width="28" height="28" tilewidth="192" tileheight="96" infinite="0" backgroundcolor="#000000" nextlayerid="23" nextobjectid="9">
 <editorsettings>
  <export target="../../../../game/mods/procgen_test/maps/iron_labyrinth/room7.txt" format="flare"/>
 </editorsettings>
 <properties>
  <property name="hero_pos" value="13,13"/>
  <property name="procgen_type" value="normal"/>
  <property name="tileset" value="tilesetdefs/tileset_ruins.txt"/>
 </properties>
 <tileset firstgid="1" name="collision" tilewidth="192" tileheight="96" tilecount="15" columns="15">
  <image source="../tilesheets/tiled_collision.png" width="2880" height="96"/>
 </tileset>
 <tileset firstgid="16" name="set_rules" tilewidth="192" tileheight="96" tilecount="8" columns="2">
  <image source="../tilesheets/tiled_set_rules.png" width="384" height="384"/>
 </tileset>
 <tileset firstgid="24" name="ruins" tilewidth="192" tileheight="384" tilecount="352" columns="16">
  <image source="../tilesheets/ruins.png" width="3072" height="8448"/>
 </tileset>
 <tileset firstgid="376" name="ruins_door_left" tilewidth="192" tileheight="384" tilecount="2" columns="2">
  <tileoffset x="-48" y="-24"/>
  <image source="../tilesheets/ruins_door_left.png" width="384" height="384"/>
 </tileset>
 <tileset firstgid="378" name="ruins_door_right" tilewidth="192" tileheight="384" tilecount="2" columns="2">
  <tileoffset x="48" y="-24"/>
  <image source="../tilesheets/ruins_door_right.png" width="384" height="384"/>
 </tileset>
 <tileset firstgid="380" name="ruins_2x2" tilewidth="384" tileheight="192" tilecount="4" columns="4">
  <tileoffset x="0" y="48"/>
  <image source="../tilesheets/ruins_2x2.png" width="1536" height="192"/>
 </tileset>
 <tileset firstgid="384" name="boss_chest" tilewidth="192" tileheight="192" tilecount="4" columns="4">
  <image source="../tilesheets/boss_chest.png" width="768" height="192"/>
 </tileset>
 <layer id="9" name="background" width="28" height="28">
  <data encoding="csv">
0,0,0,0,0,0,0,0,0,0,0,0,0,0,0,0,0,0,0,0,0,0,0,0,0,0,0,0,
0,0,0,0,0,0,0,0,0,0,0,0,0,0,0,0,0,0,0,0,0,0,0,0,0,0,0,0,
0,0,0,0,0,0,0,0,0,0,0,0,0,0,0,0,0,0,0,0,0,0,0,0,0,0,0,0,
0,0,0,0,0,0,0,0,0,0,0,0,0,0,0,0,0,0,0,0,0,0,0,0,0,0,0,0,
0,0,0,0,24,25,26,27,24,25,26,27,24,25,26,27,24,25,26,27,24,25,26,27,0,0,0,0,
0,0,0,0,28,42,42,39,40,40,38,39,42,38,39,42,41,40,39,43,38,43,40,31,0,0,0,0,
0,0,0,0,24,42,26,27,24,25,26,27,24,25,26,27,24,25,26,27,24,25,41,27,0,0,0,0,
0,0,0,0,28,38,30,31,28,29,30,31,97,96,30,31,28,29,30,31,28,29,43,31,0,0,0,0,
0,0,0,0,24,38,26,27,24,25,26,97,101,100,96,27,24,25,26,27,24,25,38,27,0,0,0,0,
0,0,0,0,28,38,30,31,28,97,93,101,86,105,100,96,28,29,30,31,28,29,40,31,0,0,0,0,
0,0,0,0,24,42,26,27,97,101,110,111,108,109,110,100,93,96,26,27,24,25,43,27,0,0,0,0,
0,0,0,0,28,42,30,97,101,113,114,115,112,113,114,115,112,90,30,31,28,29,43,31,0,0,0,0,
0,0,0,0,24,41,26,88,116,117,118,119,116,117,118,119,116,100,96,27,24,25,42,27,0,0,0,0,
0,0,0,0,28,40,30,92,104,105,106,107,104,105,106,107,104,105,100,96,28,29,39,31,0,0,0,0,
0,0,0,0,24,38,26,98,102,109,110,111,108,109,110,111,108,109,110,100,96,25,43,27,0,0,0,0,
0,0,0,0,28,38,30,31,92,113,114,115,112,113,114,115,112,113,84,103,99,29,39,31,0,0,0,0,
0,0,0,0,24,40,26,27,92,117,118,119,116,117,118,119,116,117,103,99,24,25,43,27,0,0,0,0,
0,0,0,0,28,38,30,31,98,102,106,107,104,105,106,107,103,91,99,31,28,29,39,31,0,0,0,0,
0,0,0,0,24,38,26,27,24,98,91,102,108,109,66,111,90,25,26,27,24,25,41,27,0,0,0,0,
0,0,0,0,28,41,30,31,28,29,30,98,102,65,37,103,99,29,30,31,28,29,43,31,0,0,0,0,
0,0,0,0,24,43,26,27,24,25,26,27,98,102,103,99,24,25,26,27,24,25,41,27,0,0,0,0,
0,0,0,0,28,39,30,31,28,29,30,31,28,98,99,31,28,29,30,31,28,29,41,31,0,0,0,0,
0,0,0,0,24,39,42,39,38,38,39,43,39,41,41,41,39,39,40,41,43,41,39,27,0,0,0,0,
0,0,0,0,28,29,30,31,28,29,30,31,28,29,30,31,28,29,30,31,28,29,30,31,0,0,0,0,
0,0,0,0,0,0,0,0,0,0,0,0,0,0,0,0,0,0,0,0,0,0,0,0,0,0,0,0,
0,0,0,0,0,0,0,0,0,0,0,0,0,0,0,0,0,0,0,0,0,0,0,0,0,0,0,0,
0,0,0,0,0,0,0,0,0,0,0,0,0,0,0,0,0,0,0,0,0,0,0,0,0,0,0,0,
0,0,0,0,0,0,0,0,0,0,0,0,0,0,0,0,0,0,0,0,0,0,0,0,0,0,0,0
</data>
 </layer>
 <layer id="12" name="background_fringe" width="28" height="28">
  <data encoding="csv">
0,0,0,0,0,0,0,0,0,0,0,0,0,0,0,0,0,0,0,0,0,0,0,0,0,0,0,0,
0,0,0,0,0,0,0,0,0,0,0,0,0,0,0,0,0,0,0,0,0,0,0,0,0,0,0,0,
0,0,0,0,0,0,0,0,0,0,0,0,0,0,0,0,0,0,0,0,0,0,0,0,0,0,0,0,
0,0,0,0,0,0,0,0,0,0,0,0,0,0,0,0,0,0,0,0,0,0,0,0,0,0,0,0,
0,0,0,0,0,0,0,0,0,0,0,0,0,0,0,0,0,0,0,0,0,0,0,0,0,0,0,0,
0,0,0,0,0,0,0,0,0,0,0,0,0,0,0,0,0,0,0,0,0,0,0,0,0,0,0,0,
0,0,0,0,0,0,0,0,0,0,0,0,0,0,0,0,0,0,0,0,0,0,0,0,0,0,0,0,
0,0,0,0,0,0,0,0,0,0,0,0,0,0,0,0,0,0,0,0,0,0,0,0,0,0,0,0,
0,0,0,0,0,0,0,0,0,0,0,0,0,0,0,0,0,0,0,0,0,0,0,0,0,0,0,0,
0,0,0,0,0,0,0,0,0,0,0,0,0,0,0,0,0,0,0,0,0,0,0,0,0,0,0,0,
0,0,0,0,0,0,0,0,0,0,0,0,0,0,0,0,0,0,0,0,0,0,0,0,0,0,0,0,
0,0,0,0,0,0,0,0,0,0,0,0,0,0,0,0,0,0,0,0,0,0,0,0,0,0,0,0,
0,0,0,0,0,0,0,0,0,0,0,0,0,0,0,0,0,0,0,0,0,0,0,0,0,0,0,0,
0,0,0,0,0,0,0,0,0,0,0,0,0,0,0,0,0,0,0,0,0,0,0,0,0,0,0,0,
0,0,0,0,0,0,0,0,0,0,0,0,0,0,0,0,0,0,0,0,0,0,0,0,0,0,0,0,
0,0,0,0,0,0,0,0,0,0,0,0,0,0,0,0,0,0,0,0,0,0,0,0,0,0,0,0,
0,0,0,0,0,0,0,0,0,0,0,0,0,0,0,0,0,0,0,0,0,0,0,0,0,0,0,0,
0,0,0,0,0,0,0,0,0,0,0,0,0,0,0,0,0,0,0,0,0,0,0,0,0,0,0,0,
0,0,0,0,0,0,0,0,0,0,0,0,0,0,0,0,0,0,0,0,0,0,0,0,0,0,0,0,
0,0,0,0,0,0,0,0,0,0,0,0,0,0,0,0,0,0,0,0,0,0,0,0,0,0,0,0,
0,0,0,0,0,0,0,0,0,0,0,0,0,0,0,0,0,0,0,0,0,0,0,0,0,0,0,0,
0,0,0,0,0,0,0,0,0,0,0,0,0,0,0,0,0,0,0,0,0,0,0,0,0,0,0,0,
0,0,0,0,0,0,0,0,0,0,0,0,0,0,0,0,0,0,0,0,0,0,0,0,0,0,0,0,
0,0,0,0,0,0,0,0,0,0,0,0,0,0,0,0,0,0,0,0,0,0,0,0,0,0,0,0,
0,0,0,0,0,0,0,0,0,0,0,0,0,0,0,0,0,0,0,0,0,0,0,0,0,0,0,0,
0,0,0,0,0,0,0,0,0,0,0,0,0,0,0,0,0,0,0,0,0,0,0,0,0,0,0,0,
0,0,0,0,0,0,0,0,0,0,0,0,0,0,0,0,0,0,0,0,0,0,0,0,0,0,0,0,
0,0,0,0,0,0,0,0,0,0,0,0,0,0,0,0,0,0,0,0,0,0,0,0,0,0,0,0
</data>
 </layer>
 <layer id="10" name="object" width="28" height="28">
  <data encoding="csv">
153,154,155,156,153,154,155,156,153,154,155,156,153,154,155,156,153,154,155,156,153,154,155,156,153,154,155,156,
157,158,159,160,157,158,159,160,157,158,159,160,157,158,159,160,157,158,159,160,157,158,159,160,157,158,159,160,
153,154,165,166,162,165,166,162,161,163,163,166,163,166,165,162,165,165,162,164,162,162,163,166,165,164,155,156,
157,158,165,160,157,158,159,160,157,158,159,160,157,158,159,160,157,158,159,160,157,158,159,160,157,161,159,160,
153,154,165,156,148,137,200,171,237,171,137,200,216,236,137,169,249,175,171,177,196,239,137,149,153,163,155,156,
157,158,164,160,170,0,0,0,0,0,0,0,0,0,0,0,0,0,0,0,0,0,0,138,157,163,159,160,
153,154,162,156,240,0,0,0,0,0,0,0,0,0,0,0,0,0,0,0,0,0,0,138,153,166,155,156,
157,158,162,160,140,0,0,146,204,0,0,0,0,0,0,0,0,0,0,146,222,0,0,138,157,165,159,160,
153,154,162,156,238,0,0,220,144,0,0,0,0,0,0,0,0,0,0,183,144,0,0,138,153,161,155,156,
157,158,164,160,136,0,0,0,0,0,0,0,0,187,0,0,0,0,0,0,0,0,0,138,157,163,159,160,
153,154,161,156,168,0,0,0,0,0,312,0,0,0,0,0,0,314,0,0,0,0,0,138,153,164,155,156,
157,158,164,160,170,0,0,224,0,0,191,0,0,0,312,0,0,193,0,0,0,0,0,138,157,162,159,160,
153,154,165,156,199,0,0,0,0,0,0,0,0,0,289,285,0,0,0,0,0,0,0,138,153,164,155,156,
157,158,164,160,235,0,0,0,0,0,0,0,0,0,193,0,0,0,0,0,0,0,0,138,157,164,159,160,
153,154,162,156,176,0,0,186,0,0,0,0,0,0,0,0,0,0,223,0,0,0,0,138,153,166,155,156,
157,158,162,160,248,0,0,0,316,291,268,0,314,0,0,0,312,316,0,0,0,0,0,138,157,161,159,160,
153,154,161,156,174,0,0,0,0,0,0,0,0,0,0,0,0,0,0,0,0,0,0,138,153,166,155,156,
157,158,164,160,176,0,0,0,0,0,0,292,0,0,317,0,0,0,0,0,0,0,0,138,157,163,159,160,
153,154,163,156,136,0,0,0,0,0,0,312,192,0,0,0,0,0,0,0,0,0,0,138,153,164,155,156,
157,158,162,160,240,0,0,146,204,0,0,0,0,0,0,0,0,0,0,203,204,0,0,138,157,162,159,160,
153,154,166,156,174,0,0,220,144,0,0,0,0,0,0,0,0,0,0,202,219,0,0,138,153,166,155,156,
157,158,166,160,178,0,0,0,0,0,0,0,0,0,0,0,0,0,0,0,0,0,0,138,157,164,159,160,
153,154,166,156,174,0,0,0,0,0,0,0,0,0,0,0,0,0,0,0,0,0,0,138,153,164,155,156,
157,158,161,160,151,139,139,139,139,139,139,139,139,139,139,139,139,139,139,139,139,139,139,150,157,164,159,160,
153,154,162,156,153,154,155,156,153,154,155,156,153,154,155,156,153,154,155,156,153,154,155,156,153,164,155,156,
157,158,162,164,166,162,166,166,161,161,161,166,164,162,162,164,164,164,165,162,162,163,166,161,165,166,159,160,
153,154,155,156,153,154,155,156,153,154,155,156,153,154,155,156,153,154,155,156,153,154,155,156,153,154,155,156,
157,158,159,160,157,158,159,160,157,158,159,160,157,158,159,160,157,158,159,160,157,158,159,160,157,158,159,160
</data>
 </layer>
 <layer id="11" name="collision" width="28" height="28">
  <data encoding="csv">
3,3,3,3,3,3,3,3,3,3,3,3,3,3,3,3,3,3,3,3,3,3,3,3,3,3,3,3,
3,3,3,3,3,3,3,3,3,3,3,3,3,3,3,3,3,3,3,3,3,3,3,3,3,3,3,3,
3,3,3,3,3,3,3,3,3,3,3,3,3,3,3,3,3,3,3,3,3,3,3,3,3,3,3,3,
3,3,3,3,3,3,3,3,3,3,3,3,3,3,3,3,3,3,3,3,3,3,3,3,3,3,3,3,
3,3,3,3,1,1,1,1,1,1,1,1,1,1,1,1,1,1,1,1,1,1,1,1,3,3,3,3,
3,3,3,3,1,0,0,0,0,0,0,0,0,0,0,0,0,0,0,0,0,0,0,1,3,3,3,3,
3,3,3,3,1,0,0,0,0,0,0,0,0,0,0,0,0,0,0,0,0,0,0,1,3,3,3,3,
3,3,3,3,1,0,0,1,1,0,0,0,0,0,0,0,0,0,0,1,1,0,0,1,3,3,3,3,
3,3,3,3,1,0,0,1,1,0,0,0,0,0,0,0,0,0,0,1,1,0,0,1,3,3,3,3,
3,3,3,3,1,0,0,0,0,0,0,0,0,2,0,0,0,0,0,0,0,0,0,1,3,3,3,3,
3,3,3,3,1,0,0,0,0,0,2,0,0,0,0,0,0,0,0,0,0,0,0,1,3,3,3,3,
3,3,3,3,1,0,0,1,0,0,2,0,0,0,2,0,0,2,0,0,0,0,0,1,3,3,3,3,
3,3,3,3,1,0,0,0,0,0,0,0,0,0,2,2,0,0,0,0,0,0,0,1,3,3,3,3,
3,3,3,3,1,0,0,0,0,0,0,0,0,0,2,0,0,0,0,0,0,0,0,1,3,3,3,3,
3,3,3,3,1,0,0,1,0,0,0,0,0,0,0,0,0,0,1,0,0,0,0,1,3,3,3,3,
3,3,3,3,1,0,0,0,2,2,2,0,2,0,0,0,2,2,0,0,0,0,0,1,3,3,3,3,
3,3,3,3,1,0,0,0,0,0,0,0,0,0,0,0,0,0,0,0,0,0,0,1,3,3,3,3,
3,3,3,3,1,0,0,0,0,0,0,2,0,0,2,0,0,0,0,0,0,0,0,1,3,3,3,3,
3,3,3,3,1,0,0,0,0,0,0,2,2,0,0,0,0,0,0,0,0,0,0,1,3,3,3,3,
3,3,3,3,1,0,0,1,1,0,0,0,0,0,0,0,0,0,0,1,1,0,0,1,3,3,3,3,
3,3,3,3,1,0,0,1,1,0,0,0,0,0,0,0,0,0,0,1,1,0,0,1,3,3,3,3,
3,3,3,3,1,0,0,0,0,0,0,0,0,0,0,0,0,0,0,0,0,0,0,1,3,3,3,3,
3,3,3,3,1,0,0,0,0,0,0,0,0,0,0,0,0,0,0,0,0,0,0,1,3,3,3,3,
3,3,3,3,1,1,1,1,1,1,1,1,1,1,1,1,1,1,1,1,1,1,1,1,3,3,3,3,
3,3,3,3,3,3,3,3,3,3,3,3,3,3,3,3,3,3,3,3,3,3,3,3,3,3,3,3,
3,3,3,3,3,3,3,3,3,3,3,3,3,3,3,3,3,3,3,3,3,3,3,3,3,3,3,3,
3,3,3,3,3,3,3,3,3,3,3,3,3,3,3,3,3,3,3,3,3,3,3,3,3,3,3,3,
3,3,3,3,3,3,3,3,3,3,3,3,3,3,3,3,3,3,3,3,3,3,3,3,3,3,3,3
</data>
 </layer>
 <objectgroup id="22" name="event">
  <object id="5" name="Urn" type="event" x="960" y="1440" width="96" height="96">
   <properties>
    <property name="activate" value="on_trigger"/>
    <property name="hotspot" value="location"/>
    <property name="loot" value="loot/il_chest_common.txt"/>
    <property name="loot_count" value="1"/>
    <property name="mapmod" value="object,10,15,269"/>
    <property name="repeat" value="false"/>
    <property name="soundfx" value="soundfx/inventory/inventory_object.ogg"/>
    <property name="tooltip" value="Urn"/>
   </properties>
  </object>
  <object id="6" name="Crate" type="event" x="1440" y="1152" width="96" height="96">
   <properties>
    <property name="activate" value="on_trigger"/>
    <property name="hotspot" value="location"/>
    <property name="loot" value="loot/il_chest_common.txt"/>
    <property name="loot_count" value="1"/>
    <property name="mapmod" value="object,15,12,286"/>
    <property name="repeat" value="false"/>
    <property name="soundfx" value="soundfx/wood_open.ogg"/>
    <property name="tooltip" value="Crate"/>
   </properties>
  </object>
  <object id="7" name="Spawn antlions" type="event" x="768" y="960" width="960" height="768">
   <properties>
    <property name="activate" value="on_trigger"/>
    <property name="repeat" value="false"/>
    <property name="soundfx" value="soundfx/enemies/antlion_hit.ogg,12,14"/>
    <property name="spawn" value="il_antlion_small,9,12;il_antlion,12,16;il_antlion_small,16,16;il_antlion_small,15,10;il_antlion,11,10;il_antlion,12,13;"/>
    <property name="spawn_level" value="hero_level,1"/>
   </properties>
  </object>
  <object id="8" name="Water dripping" type="event" x="1344" y="1152" width="96" height="96">
   <properties>
    <property name="activate" value="on_load"/>
    <property name="soundfx" value="soundfx/environment/cave_droplets_loop.ogg"/>
   </properties>
  </object>
 </objectgroup>
</map>
