<?xml version="1.0" encoding="UTF-8"?>
<map version="1.11" tiledversion="1.11.2" orientation="isometric" renderorder="right-down" width="28" height="28" tilewidth="192" tileheight="96" infinite="0" backgroundcolor="#000000" nextlayerid="40" nextobjectid="12">
 <editorsettings>
  <export target="../../../../game/mods/procgen_test/maps/iron_labyrinth/room6.txt" format="flare"/>
 </editorsettings>
 <properties>
  <property name="hero_pos" value="13,13"/>
  <property name="procgen_type" value="normal"/>
  <property name="tileset" value="tilesetdefs/tileset_ruins.txt"/>
 </properties>
 <tileset firstgid="1" name="collision" tilewidth="192" tileheight="96" tilecount="15" columns="15">
  <image source="../tilesheets/tiled_collision.png" width="2880" height="96"/>
 </tileset>
 <tileset firstgid="16" name="set_rules" tilewidth="192" tileheight="96" tilecount="8" columns="2">
  <image source="../tilesheets/tiled_set_rules.png" width="384" height="384"/>
 </tileset>
 <tileset firstgid="24" name="ruins" tilewidth="192" tileheight="384" tilecount="352" columns="16">
  <image source="../tilesheets/ruins.png" width="3072" height="8448"/>
 </tileset>
 <tileset firstgid="376" name="ruins_door_left" tilewidth="192" tileheight="384" tilecount="2" columns="2">
  <tileoffset x="-48" y="-24"/>
  <image source="../tilesheets/ruins_door_left.png" width="384" height="384"/>
 </tileset>
 <tileset firstgid="378" name="ruins_door_right" tilewidth="192" tileheight="384" tilecount="2" columns="2">
  <tileoffset x="48" y="-24"/>
  <image source="../tilesheets/ruins_door_right.png" width="384" height="384"/>
 </tileset>
 <tileset firstgid="380" name="ruins_2x2" tilewidth="384" tileheight="192" tilecount="4" columns="4">
  <tileoffset x="0" y="48"/>
  <image source="../tilesheets/ruins_2x2.png" width="1536" height="192"/>
 </tileset>
 <tileset firstgid="384" name="boss_chest" tilewidth="192" tileheight="192" tilecount="4" columns="4">
  <image source="../tilesheets/boss_chest.png" width="768" height="192"/>
 </tileset>
 <layer id="9" name="background" width="28" height="28">
  <data encoding="csv">
0,0,0,0,0,0,0,0,0,0,0,0,0,0,0,0,0,0,0,0,0,0,0,0,0,0,0,0,
0,0,0,0,0,0,0,0,0,0,0,0,0,0,0,0,0,0,0,0,0,0,0,0,0,0,0,0,
0,0,0,0,0,0,0,0,0,0,0,0,0,0,0,0,0,0,0,0,0,0,0,0,0,0,0,0,
0,0,0,0,0,0,0,0,0,0,0,0,0,0,0,0,0,0,0,0,0,0,0,0,0,0,0,0,
0,0,0,0,0,0,0,27,24,25,26,27,24,25,26,27,24,25,26,27,24,0,0,0,0,0,0,0,
0,0,0,0,0,0,0,31,40,40,38,39,42,38,39,42,41,40,39,43,28,0,0,0,0,0,0,0,
0,0,0,0,0,0,0,27,42,25,26,27,24,25,26,27,24,25,26,38,24,0,0,0,0,0,0,0,
0,0,0,0,28,29,30,31,41,29,30,31,28,29,30,31,28,29,30,42,28,29,30,31,0,0,0,0,
0,0,0,0,24,38,38,42,122,124,124,124,124,43,38,122,124,124,124,124,42,39,38,27,0,0,0,0,
0,0,0,0,28,38,30,31,123,29,123,0,0,40,43,123,0,0,0,0,28,29,40,31,0,0,0,0,
0,0,0,0,24,42,26,27,123,124,0,0,0,25,26,123,0,25,123,0,24,25,43,27,0,0,0,0,
0,0,0,0,28,42,30,31,123,0,0,0,0,29,30,123,0,124,0,0,28,29,43,31,0,0,0,0,
0,0,0,0,24,41,26,27,40,41,26,27,24,25,26,123,0,0,0,27,24,25,42,27,0,0,0,0,
0,0,0,0,28,40,30,31,42,41,30,31,28,29,30,31,28,123,0,31,28,29,39,31,0,0,0,0,
0,0,0,0,24,38,26,27,122,124,26,27,24,25,26,122,124,0,0,27,24,25,43,27,0,0,0,0,
0,0,0,0,28,38,30,31,123,0,30,31,28,29,30,123,0,0,0,31,28,29,39,31,0,0,0,0,
0,0,0,0,24,40,26,27,123,0,124,124,124,25,26,43,43,25,26,27,24,25,43,27,0,0,0,0,
0,0,0,0,28,38,30,31,123,0,30,123,0,29,30,42,40,29,30,31,28,29,39,31,0,0,0,0,
0,0,0,0,24,38,26,27,123,0,124,0,0,124,124,124,124,25,26,27,24,25,41,27,0,0,0,0,
0,0,0,0,28,41,43,43,123,0,0,0,0,0,0,0,0,29,30,31,28,29,43,31,0,0,0,0,
0,0,0,0,24,25,26,27,43,25,26,27,24,25,26,27,24,25,26,27,24,25,41,27,0,0,0,0,
0,0,0,0,0,0,0,31,38,29,30,31,28,29,30,31,28,29,30,31,28,29,41,31,0,0,0,0,
0,0,0,0,0,0,0,27,38,38,39,43,39,41,41,41,39,39,40,41,43,41,39,27,0,0,0,0,
0,0,0,0,0,0,0,31,28,29,30,31,28,29,30,31,28,29,30,31,28,29,30,31,0,0,0,0,
0,0,0,0,0,0,0,0,0,0,0,0,0,0,0,0,0,0,0,0,0,0,0,0,0,0,0,0,
0,0,0,0,0,0,0,0,0,0,0,0,0,0,0,0,0,0,0,0,0,0,0,0,0,0,0,0,
0,0,0,0,0,0,0,0,0,0,0,0,0,0,0,0,0,0,0,0,0,0,0,0,0,0,0,0,
0,0,0,0,0,0,0,0,0,0,0,0,0,0,0,0,0,0,0,0,0,0,0,0,0,0,0,0
</data>
 </layer>
 <layer id="12" name="background_fringe" width="28" height="28">
  <data encoding="csv">
0,0,0,0,0,0,0,0,0,0,0,0,0,0,0,0,0,0,0,0,0,0,0,0,0,0,0,0,
0,0,0,0,0,0,0,0,0,0,0,0,0,0,0,0,0,0,0,0,0,0,0,0,0,0,0,0,
0,0,0,0,0,0,0,0,0,0,0,0,0,0,0,0,0,0,0,0,0,0,0,0,0,0,0,0,
0,0,0,0,0,0,0,0,0,0,0,0,0,0,0,0,0,0,0,0,0,0,0,0,0,0,0,0,
0,0,0,0,0,0,0,0,0,0,0,0,0,0,0,0,0,0,0,0,0,0,0,0,0,0,0,0,
0,0,0,0,0,0,0,0,0,0,0,0,0,0,0,0,0,0,0,0,0,0,0,0,0,0,0,0,
0,0,0,0,0,0,0,0,0,0,0,0,0,0,0,0,0,0,0,0,0,0,0,0,0,0,0,0,
0,0,0,0,0,0,0,60,49,49,49,49,49,61,60,49,49,53,49,53,61,0,0,0,0,0,0,0,
0,0,0,0,0,0,0,48,0,0,0,0,0,50,52,0,0,0,0,0,54,0,0,0,0,0,0,0,
0,0,0,0,0,0,0,48,0,58,0,0,0,50,48,0,0,0,0,0,50,0,0,0,0,0,0,0,
0,0,0,0,0,0,0,52,0,0,0,0,0,50,48,0,0,58,0,0,50,0,0,0,0,0,0,0,
0,0,0,0,0,0,0,52,0,0,0,0,0,54,52,0,0,0,0,0,54,0,0,0,0,0,0,0,
0,0,0,0,0,0,0,63,55,51,51,51,51,62,48,0,0,0,0,58,62,0,0,0,0,0,0,0,
0,0,0,0,0,0,0,60,49,49,61,0,0,0,63,51,59,0,0,50,0,0,0,0,0,0,0,0,
0,0,0,0,0,0,0,52,0,0,54,0,0,0,48,51,51,0,0,50,0,0,0,0,0,0,0,0,
0,0,0,0,0,0,0,48,0,0,57,53,49,61,48,0,0,0,0,54,0,0,0,0,0,0,0,0,
0,0,0,0,0,0,0,52,0,0,0,0,0,50,63,55,51,55,55,62,0,0,0,0,0,0,0,0,
0,0,0,0,0,0,0,52,0,0,58,0,0,57,49,53,49,61,58,55,59,0,0,0,0,0,0,0,
0,0,0,0,0,0,0,52,0,0,0,0,0,0,0,0,0,54,50,0,52,0,0,0,0,0,0,0,
0,0,0,0,0,0,0,48,0,0,0,0,0,0,0,0,0,54,54,0,48,0,0,0,0,0,0,0,
0,0,0,0,0,0,0,63,51,51,55,51,55,55,55,51,55,62,57,49,56,0,0,0,0,0,0,0,
0,0,0,0,0,0,0,0,0,0,0,0,0,0,0,0,0,0,0,0,0,0,0,0,0,0,0,0,
0,0,0,0,0,0,0,0,0,0,0,0,0,0,0,0,0,0,0,0,0,0,0,0,0,0,0,0,
0,0,0,0,0,0,0,0,0,0,0,0,0,0,0,0,0,0,0,0,0,0,0,0,0,0,0,0,
0,0,0,0,0,0,0,0,0,0,0,0,0,0,0,0,0,0,0,0,0,0,0,0,0,0,0,0,
0,0,0,0,0,0,0,0,0,0,0,0,0,0,0,0,0,0,0,0,0,0,0,0,0,0,0,0,
0,0,0,0,0,0,0,0,0,0,0,0,0,0,0,0,0,0,0,0,0,0,0,0,0,0,0,0,
0,0,0,0,0,0,0,0,0,0,0,0,0,0,0,0,0,0,0,0,0,0,0,0,0,0,0,0
</data>
 </layer>
 <layer id="10" name="object" width="28" height="28">
  <data encoding="csv">
153,154,155,156,153,154,155,156,153,154,155,156,153,154,155,156,153,154,155,156,153,154,155,156,153,154,155,156,
157,158,159,160,157,158,159,160,157,158,159,160,157,158,159,160,157,158,159,160,157,158,159,160,157,158,159,160,
153,154,165,166,162,165,166,162,161,163,163,166,163,166,165,162,165,165,162,164,162,162,163,166,165,164,155,156,
157,158,165,160,157,158,159,160,157,158,159,160,157,158,159,160,157,158,159,160,157,158,159,160,157,161,159,160,
153,154,165,156,155,156,153,148,137,169,237,137,175,137,171,177,141,175,236,141,149,154,155,156,153,163,155,156,
157,158,164,160,159,160,157,215,0,0,0,0,0,0,0,0,0,0,0,0,138,158,159,160,157,163,159,160,
153,154,162,156,159,160,157,252,0,0,0,0,0,0,0,0,0,0,0,0,138,154,155,156,153,166,155,156,
157,158,162,160,148,214,237,144,0,0,0,243,0,0,0,0,243,0,0,0,210,250,137,149,157,165,159,160,
153,154,162,156,248,0,0,190,0,0,0,0,0,0,0,0,0,0,0,0,193,0,0,138,153,161,155,156,
157,158,164,160,213,0,0,0,0,293,0,0,0,0,0,0,0,0,0,0,0,0,0,138,157,163,159,160,
153,154,161,156,235,0,0,0,0,0,0,0,0,0,0,0,0,293,0,0,0,0,0,138,153,164,155,156,
157,158,164,160,170,0,0,0,0,0,0,0,0,0,0,0,0,0,0,0,0,0,0,138,157,162,159,160,
153,154,165,156,215,0,0,0,0,0,0,0,0,0,0,0,0,0,0,230,0,0,0,138,153,164,155,156,
157,158,164,160,168,0,0,0,0,0,0,0,0,0,0,0,272,0,0,0,0,0,0,138,157,164,159,160,
153,154,162,156,238,0,0,0,0,0,0,231,268,0,0,0,0,0,0,0,0,0,0,138,153,166,155,156,
157,158,162,160,170,0,0,0,0,0,0,189,0,0,0,0,0,0,0,0,0,0,0,138,157,161,159,160,
153,154,161,156,199,0,0,0,0,0,0,0,0,0,0,0,0,0,0,0,0,0,0,138,153,166,155,156,
157,158,164,160,215,0,0,0,0,0,293,0,0,0,0,0,0,0,0,0,0,0,0,138,157,163,159,160,
153,154,163,156,170,0,0,0,0,0,0,0,0,0,0,0,0,0,0,295,0,0,0,138,153,164,155,156,
157,158,162,160,136,0,0,189,0,0,0,0,0,0,0,0,0,0,0,231,0,0,0,138,157,162,159,160,
153,154,166,156,151,139,139,212,0,0,0,241,0,0,0,0,241,0,0,0,0,0,0,138,153,166,155,156,
157,158,166,160,157,158,159,238,0,0,0,0,0,0,0,0,0,0,0,0,0,0,0,138,157,164,159,160,
153,154,166,156,153,154,155,136,0,0,0,0,0,0,0,0,0,0,0,0,0,0,0,138,153,164,155,156,
157,158,161,160,157,158,159,151,139,139,139,139,139,139,139,139,139,139,139,139,139,139,139,150,157,164,159,160,
153,154,162,156,153,154,155,156,153,154,155,156,153,154,155,156,153,154,155,156,153,154,155,156,153,164,155,156,
157,158,162,164,166,162,166,166,161,161,161,166,164,162,162,164,164,164,165,162,162,163,166,161,165,166,159,160,
153,154,155,156,153,154,155,156,153,154,155,156,153,154,155,156,153,154,155,156,153,154,155,156,153,154,155,156,
157,158,159,160,157,158,159,160,157,158,159,160,157,158,159,160,157,158,159,160,157,158,159,160,157,158,159,160
</data>
 </layer>
 <layer id="11" name="collision" width="28" height="28">
  <data encoding="csv">
3,3,3,3,3,3,3,3,3,3,3,3,3,3,3,3,3,3,3,3,3,3,3,3,3,3,3,3,
3,3,3,3,3,3,3,3,3,3,3,3,3,3,3,3,3,3,3,3,3,3,3,3,3,3,3,3,
3,3,3,3,3,3,3,3,3,3,3,3,3,3,3,3,3,3,3,3,3,3,3,3,3,3,3,3,
3,3,3,3,3,3,3,3,3,3,3,3,3,3,3,3,3,3,3,3,3,3,3,3,3,3,3,3,
3,3,3,3,3,3,3,1,1,1,1,1,1,1,1,1,1,1,1,1,1,3,3,3,3,3,3,3,
3,3,3,3,3,3,3,1,0,0,0,0,0,0,0,0,0,0,0,0,1,3,3,3,3,3,3,3,
3,3,3,3,3,3,3,1,0,0,0,0,0,0,0,0,0,0,0,0,1,3,3,3,3,3,3,3,
3,3,3,3,1,1,1,1,0,0,0,1,0,0,0,0,1,0,0,0,1,1,1,1,3,3,3,3,
3,3,3,3,1,0,0,2,2,2,2,2,2,0,0,2,2,2,2,2,2,0,0,1,3,3,3,3,
3,3,3,3,1,0,0,0,2,2,4,4,2,0,0,2,4,4,4,2,0,0,0,1,3,3,3,3,
3,3,3,3,1,0,0,0,2,4,4,4,2,0,0,2,4,2,4,2,0,0,0,1,3,3,3,3,
3,3,3,3,1,0,0,0,2,2,2,2,2,0,0,2,4,4,2,2,0,0,0,1,3,3,3,3,
3,3,3,3,1,0,0,0,0,0,0,0,0,0,0,2,2,2,2,1,0,0,0,1,3,3,3,3,
3,3,3,3,1,0,0,0,0,0,0,0,0,0,0,0,2,2,2,0,0,0,0,1,3,3,3,3,
3,3,3,3,1,0,0,0,2,2,0,1,2,0,0,2,2,2,2,0,0,0,0,1,3,3,3,3,
3,3,3,3,1,0,0,0,2,2,0,0,0,0,0,2,2,2,2,0,0,0,0,1,3,3,3,3,
3,3,3,3,1,0,0,0,2,2,2,2,2,0,0,0,0,0,0,0,0,0,0,1,3,3,3,3,
3,3,3,3,1,0,0,0,2,4,2,4,2,0,0,0,0,0,0,0,0,0,0,1,3,3,3,3,
3,3,3,3,1,0,0,0,2,4,4,4,2,2,2,2,2,0,0,2,0,0,0,1,3,3,3,3,
3,3,3,3,1,0,0,2,2,2,2,2,2,2,2,2,2,0,0,1,0,0,0,1,3,3,3,3,
3,3,3,3,1,1,1,1,0,0,0,1,0,0,0,0,1,0,0,0,0,0,0,1,3,3,3,3,
3,3,3,3,3,3,3,1,0,0,0,0,0,0,0,0,0,0,0,0,0,0,0,1,3,3,3,3,
3,3,3,3,3,3,3,1,0,0,0,0,0,0,0,0,0,0,0,0,0,0,0,1,3,3,3,3,
3,3,3,3,3,3,3,1,1,1,1,1,1,1,1,1,1,1,1,1,1,1,1,1,3,3,3,3,
3,3,3,3,3,3,3,3,3,3,3,3,3,3,3,3,3,3,3,3,3,3,3,3,3,3,3,3,
3,3,3,3,3,3,3,3,3,3,3,3,3,3,3,3,3,3,3,3,3,3,3,3,3,3,3,3,
3,3,3,3,3,3,3,3,3,3,3,3,3,3,3,3,3,3,3,3,3,3,3,3,3,3,3,3,
3,3,3,3,3,3,3,3,3,3,3,3,3,3,3,3,3,3,3,3,3,3,3,3,3,3,3,3
</data>
 </layer>
 <objectgroup id="22" name="event">
  <object id="7" name="Urn" type="event" x="1152" y="1344" width="96" height="96">
   <properties>
    <property name="activate" value="on_trigger"/>
    <property name="hotspot" value="location"/>
    <property name="loot" value="loot/il_chest_common.txt"/>
    <property name="loot_count" value="1"/>
    <property name="mapmod" value="object,12,14,269"/>
    <property name="repeat" value="false"/>
    <property name="soundfx" value="soundfx/inventory/inventory_object.ogg"/>
    <property name="tooltip" value="Urn"/>
   </properties>
  </object>
  <object id="8" name="Switch" type="event" x="1536" y="1248" width="96" height="96">
   <properties>
    <property name="activate" value="on_trigger"/>
    <property name="hotspot" value="location"/>
    <property name="mapmod" value="object,9,9,294;object,10,17,294;object,16,13,273;object,17,10,294"/>
    <property name="reachable_from" value="14,12,2,3"/>
    <property name="repeat" value="false"/>
    <property name="soundfx" value="soundfx/door_open.ogg"/>
    <property name="tooltip" value="Switch"/>
   </properties>
  </object>
  <object id="9" name="Turrent" type="event" x="480" y="480" width="864" height="864">
   <properties>
    <property name="cooldown" value="5s"/>
    <property name="power" value="174"/>
    <property name="power_level" value="hero_level,1"/>
    <property name="power_path" value="9,9,hero"/>
    <property name="power_stats" value="enemies/map_powers/il_shock_turrent.txt"/>
    <property name="repeat" value="true"/>
    <property name="requires_not_tile" value="object,16,13,273"/>
   </properties>
  </object>
  <object id="10" name="Turrent" type="event" x="1248" y="576" width="864" height="864">
   <properties>
    <property name="cooldown" value="5s"/>
    <property name="power" value="174"/>
    <property name="power_level" value="hero_level,1"/>
    <property name="power_path" value="17,10,hero"/>
    <property name="power_stats" value="enemies/map_powers/il_shock_turrent.txt"/>
    <property name="repeat" value="true"/>
    <property name="requires_not_tile" value="object,16,13,273"/>
   </properties>
  </object>
  <object id="11" name="Turrent" type="event" x="576" y="1248" width="864" height="864">
   <properties>
    <property name="cooldown" value="5s"/>
    <property name="power" value="174"/>
    <property name="power_level" value="hero_level,1"/>
    <property name="power_path" value="10,17,hero"/>
    <property name="power_stats" value="enemies/map_powers/il_shock_turrent.txt"/>
    <property name="repeat" value="true"/>
    <property name="requires_not_tile" value="object,16,13,273"/>
   </properties>
  </object>
 </objectgroup>
 <objectgroup id="23" name="enemy">
  <object id="6" type="enemy" x="672" y="672" width="1344" height="1344">
   <properties>
    <property name="category" value="il_common"/>
    <property name="number" value="3,5"/>
    <property name="spawn_level" value="hero_level,1"/>
   </properties>
  </object>
 </objectgroup>
</map>
